; generated by Slic3r 1.2.9_ve on 2015-12-17 at 16:25:25

; external perimeters extrusion width = 0.40mm
; perimeters extrusion width = 0.48mm
; infill extrusion width = 0.48mm
; solid infill extrusion width = 0.48mm
; top infill extrusion width = 0.48mm

M190 P110 ; set bed temperature
M104 P240 ; set temperature
G28; move extruder to 0 
G64 P0.05 Q0.05 ; path blending settings 
G23; unretract 

M109 P240 ; wait for temperature to be reached
G21 ; set units to millimeters
G90 ; use absolute coordinates
M106 P255
G1 Z0.350 F24000.000
G22 ; retract
G1 X0.000 Y21.450 F24000.000
G23 ; unretract
M700 P0.157461
G1 X-31.000 Y21.450 F1800.000
G1 X-31.506 Y21.430
G1 X-32.132 Y21.381
G1 X-33.131 Y21.222
G1 X-33.742 Y21.076
G1 X-34.704 Y20.763
G1 X-35.284 Y20.523
G1 X-36.186 Y20.063
G1 X-36.721 Y19.736
G1 X-37.540 Y19.141
G1 X-38.017 Y18.733
G1 X-38.733 Y18.017
G1 X-39.141 Y17.540
G1 X-39.735 Y16.721
G1 X-40.063 Y16.186
G1 X-40.523 Y15.284
G1 X-40.763 Y14.704
G1 X-41.076 Y13.742
G1 X-41.222 Y13.131
G1 X-41.381 Y12.132
G1 X-41.450 Y11.000
G1 X-41.450 Y-11.000
G1 X-41.381 Y-12.132
G1 X-41.222 Y-13.131
G1 X-41.076 Y-13.742
G1 X-40.763 Y-14.704
G1 X-40.523 Y-15.285
G1 X-40.064 Y-16.185
G1 X-39.735 Y-16.721
G1 X-39.141 Y-17.540
G1 X-38.733 Y-18.017
G1 X-38.017 Y-18.733
G1 X-37.540 Y-19.141
G1 X-36.721 Y-19.736
G1 X-36.201 Y-20.054
G1 X-35.284 Y-20.523
G1 X-34.704 Y-20.763
G1 X-33.742 Y-21.076
G1 X-33.131 Y-21.222
G1 X-32.132 Y-21.381
G1 X-31.506 Y-21.430
G1 X-31.000 Y-21.450
G1 X31.000 Y-21.450
G1 X31.506 Y-21.430
M700 P0.157461
G1 X32.132 Y-21.381 F1800.000
G1 X33.131 Y-21.222
G1 X33.742 Y-21.076
G1 X34.704 Y-20.763
G1 X35.284 Y-20.523
G1 X36.186 Y-20.063
G1 X36.721 Y-19.736
G1 X37.540 Y-19.141
G1 X38.017 Y-18.733
G1 X38.733 Y-18.017
G1 X39.141 Y-17.540
G1 X39.736 Y-16.721
G1 X40.063 Y-16.186
G1 X40.523 Y-15.284
G1 X40.763 Y-14.704
G1 X41.076 Y-13.742
G1 X41.222 Y-13.131
G1 X41.381 Y-12.132
G1 X41.450 Y-11.000
G1 X41.450 Y11.000
G1 X41.430 Y11.506
G1 X41.381 Y12.132
G1 X41.222 Y13.131
G1 X41.076 Y13.742
G1 X40.763 Y14.704
G1 X40.523 Y15.284
G1 X40.063 Y16.186
G1 X39.736 Y16.721
G1 X39.141 Y17.540
G1 X38.733 Y18.017
G1 X38.017 Y18.733
G1 X37.540 Y19.141
G1 X36.721 Y19.736
G1 X36.186 Y20.063
G1 X35.284 Y20.523
G1 X34.704 Y20.763
G1 X33.742 Y21.076
G1 X33.131 Y21.222
G1 X32.132 Y21.381
G1 X31.000 Y21.450
G1 X0.060 Y21.450
M700 P0.000000
G1 X35.225 Y5.807 F24000.000
M700 P0.157461
G1 X35.225 Y11.004 F1800.000
G1 X35.172 Y11.670
G1 X35.015 Y12.314
G1 X34.768 Y12.910
G1 X34.423 Y13.476
G1 X33.994 Y13.981
G1 X33.491 Y14.413
G1 X32.926 Y14.760
G1 X32.314 Y15.015
G1 X31.652 Y15.174
G1 X31.004 Y15.225
G1 X-31.004 Y15.225
G1 X-31.652 Y15.174
G1 X-32.297 Y15.021
G1 X-32.926 Y14.760
G1 X-33.491 Y14.413
G1 X-33.994 Y13.981
G1 X-34.423 Y13.476
G1 X-34.768 Y12.910
G1 X-35.021 Y12.297
G1 X-35.174 Y11.652
G1 X-35.225 Y11.004
G1 X-35.225 Y-11.004
G1 X-35.174 Y-11.652
G1 X-35.021 Y-12.297
G1 X-34.768 Y-12.910
G1 X-34.423 Y-13.476
G1 X-33.994 Y-13.981
G1 X-33.491 Y-14.413
G1 X-32.926 Y-14.760
G1 X-32.314 Y-15.015
G1 X-31.670 Y-15.172
G1 X-31.013 Y-15.225
G1 X31.004 Y-15.225
G1 X31.652 Y-15.174
G1 X32.297 Y-15.021
G1 X32.910 Y-14.768
G1 X33.476 Y-14.423
G1 X33.994 Y-13.981
G1 X34.413 Y-13.491
G1 X34.760 Y-12.926
G1 X35.021 Y-12.297
G1 X35.174 Y-11.652
G1 X35.225 Y-11.004
G1 X35.225 Y-5.807
G1 X35.093 Y-5.675
G1 X25.077 Y-5.675
G1 X24.132 Y-5.352
G1 X23.320 Y-4.906
G1 X22.562 Y-4.312
G1 X21.910 Y-3.601
G1 X21.384 Y-2.794
G1 X20.996 Y-1.912
G1 X20.758 Y-0.979
G1 X20.676 Y-0.018
G1 X20.752 Y0.942
G1 X20.984 Y1.877
G1 X21.329 Y2.675
G1 X21.384 Y2.794
G1 X21.910 Y3.601
G1 X22.535 Y4.286
G1 X23.289 Y4.885
G1 X24.132 Y5.352
G1 X25.002 Y5.662
G1 X25.077 Y5.675
G1 X35.093 Y5.675
G1 X35.183 Y5.764
G22 ; retract
G1 X34.737 Y-6.162 F24000.000
G23 ; unretract
M700 P0.157461
G1 X24.955 Y-6.162 F1800.000
G1 X23.948 Y-5.808
G1 X23.034 Y-5.304
G1 X22.258 Y-4.693
G1 X21.511 Y-3.887
G1 X20.943 Y-3.010
G1 X20.526 Y-2.053
G1 X20.271 Y-1.041
G1 X20.186 Y-0.000
G1 X20.271 Y1.041
G1 X20.526 Y2.053
G1 X20.943 Y3.010
G1 X21.480 Y3.839
G1 X22.213 Y4.657
G1 X23.034 Y5.304
G1 X23.948 Y5.808
G1 X24.955 Y6.162
G1 X34.737 Y6.162
G1 X34.737 Y10.990
G1 X34.691 Y11.585
G1 X34.554 Y12.155
G1 X34.329 Y12.696
G1 X34.023 Y13.196
G1 X33.642 Y13.642
G1 X33.196 Y14.023
G1 X32.696 Y14.329
G1 X32.155 Y14.554
G1 X31.585 Y14.691
G1 X30.990 Y14.737
G1 X-30.990 Y14.737
G1 X-31.585 Y14.691
G1 X-32.155 Y14.554
G1 X-32.696 Y14.329
G1 X-33.196 Y14.023
G1 X-33.642 Y13.642
G1 X-34.023 Y13.196
G1 X-34.329 Y12.696
G1 X-34.554 Y12.155
G1 X-34.691 Y11.585
G1 X-34.738 Y10.990
G1 X-34.738 Y-10.990
G1 X-34.691 Y-11.585
G1 X-34.554 Y-12.155
G1 X-34.326 Y-12.701
G1 X-34.023 Y-13.196
G1 X-33.642 Y-13.642
G1 X-33.196 Y-14.023
G1 X-32.696 Y-14.329
G1 X-32.155 Y-14.554
G1 X-31.585 Y-14.691
G1 X-30.990 Y-14.738
G1 X30.990 Y-14.738
G1 X31.568 Y-14.692
G1 X32.155 Y-14.554
G1 X32.696 Y-14.329
G1 X33.196 Y-14.023
G1 X33.642 Y-13.642
G1 X34.023 Y-13.196
G1 X34.329 Y-12.696
G1 X34.554 Y-12.155
G1 X34.691 Y-11.585
G1 X34.737 Y-10.990
G1 X34.737 Y-6.223
M700 P0.000000
G1 X34.391 Y-6.363 F24000.000
G22 ; retract
G1 X-20.678 Y11.768 F24000.000
G23 ; unretract
M700 P0.157461
G1 X-20.581 Y12.086 F1800.000
G1 X-20.538 Y12.417
G1 X-20.552 Y12.749
G1 X-20.623 Y13.075
G1 X-20.747 Y13.384
G1 X-20.921 Y13.668
G1 X-21.141 Y13.918
G1 X-21.401 Y14.127
G1 X-21.691 Y14.289
G1 X-22.005 Y14.400
G1 X-22.333 Y14.456
G1 X-22.667 Y14.456
G1 X-22.995 Y14.400
G1 X-23.309 Y14.289
G1 X-23.599 Y14.127
G1 X-23.859 Y13.918
G1 X-24.079 Y13.668
G1 X-24.253 Y13.384
G1 X-24.377 Y13.075
G1 X-24.448 Y12.749
G1 X-24.461 Y12.408
G1 X-24.419 Y12.086
G1 X-24.322 Y11.768
G1 X-24.172 Y11.471
G1 X-23.974 Y11.203
G1 X-23.733 Y10.972
G1 X-23.458 Y10.786
G1 X-23.154 Y10.648
G1 X-22.823 Y10.564
M700 P0.157461
G1 X-22.500 Y10.537 F1800.000
G1 X-22.168 Y10.565
G1 X-21.846 Y10.649
G1 X-21.542 Y10.786
G1 X-21.267 Y10.972
G1 X-21.026 Y11.203
G1 X-20.828 Y11.471
G1 X-20.705 Y11.714
M700 P0.000000
G1 X-20.350 Y11.824 F24000.000
M700 P0.000000
G1 X-20.868 Y14.288 F24000.000
M700 P0.157461
G1 X-20.558 Y13.936 F1800.000
G1 X-20.344 Y13.587
G1 X-20.191 Y13.207
G1 X-20.105 Y12.807
G1 X-20.087 Y12.398
G1 X-20.139 Y11.991
G1 X-20.259 Y11.600
G1 X-20.444 Y11.234
G1 X-20.687 Y10.904
G1 X-20.983 Y10.621
G1 X-21.322 Y10.392
G1 X-21.695 Y10.223
G1 X-22.092 Y10.120
G1 X-22.500 Y10.085
G1 X-22.899 Y10.119
G1 X-23.303 Y10.222
G1 X-23.678 Y10.392
G1 X-24.017 Y10.621
G1 X-24.313 Y10.904
G1 X-24.556 Y11.234
G1 X-24.741 Y11.600
G1 X-24.861 Y11.991
G1 X-24.912 Y12.388
G1 X-24.896 Y12.805
G1 X-24.809 Y13.207
G1 X-24.656 Y13.587
G1 X-24.442 Y13.936
G1 X-24.132 Y14.288
G1 X-30.972 Y14.288
G1 X-31.514 Y14.245
G1 X-32.015 Y14.125
G1 X-32.492 Y13.927
G1 X-32.931 Y13.658
G1 X-33.323 Y13.323
G1 X-33.658 Y12.931
G1 X-33.927 Y12.492
G1 X-34.125 Y12.015
G1 X-34.245 Y11.514
G1 X-34.288 Y10.972
G1 X-34.288 Y-10.972
G1 X-34.245 Y-11.514
G1 X-34.125 Y-12.015
G1 X-33.924 Y-12.496
G1 X-33.658 Y-12.931
G1 X-33.323 Y-13.323
G1 X-32.931 Y-13.658
G1 X-32.492 Y-13.927
G1 X-32.015 Y-14.125
G1 X-31.514 Y-14.245
G1 X-30.972 Y-14.288
G1 X-24.171 Y-14.288
G1 X-24.556 Y-13.766
G1 X-24.741 Y-13.400
G1 X-24.861 Y-13.009
G1 X-24.913 Y-12.602
G1 X-24.895 Y-12.193
G1 X-24.809 Y-11.793
G1 X-24.656 Y-11.413
G1 X-24.442 Y-11.064
G1 X-24.171 Y-10.757
G1 X-23.860 Y-10.505
G1 X-23.496 Y-10.300
G1 X-23.109 Y-10.163
G1 X-22.705 Y-10.094
G1 X-22.295 Y-10.094
G1 X-21.891 Y-10.163
G1 X-21.505 Y-10.299
G1 X-21.148 Y-10.499
G1 X-20.829 Y-10.757
G1 X-20.558 Y-11.064
G1 X-20.344 Y-11.413
G1 X-20.191 Y-11.793
G1 X-20.105 Y-12.193
G1 X-20.087 Y-12.602
G1 X-20.139 Y-13.009
G1 X-20.259 Y-13.400
G1 X-20.444 Y-13.766
G1 X-20.829 Y-14.288
G1 X10.829 Y-14.288
G1 X10.444 Y-13.766
G1 X10.259 Y-13.400
G1 X10.139 Y-13.009
G1 X10.087 Y-12.602
G1 X10.105 Y-12.193
G1 X10.191 Y-11.793
G1 X10.344 Y-11.413
G1 X10.558 Y-11.064
G1 X10.829 Y-10.757
G1 X11.148 Y-10.499
G1 X11.505 Y-10.299
G1 X11.891 Y-10.163
G1 X12.295 Y-10.094
G1 X12.705 Y-10.094
G1 X13.109 Y-10.163
G1 X13.495 Y-10.299
G1 X13.852 Y-10.499
G1 X14.171 Y-10.757
G1 X14.442 Y-11.064
G1 X14.656 Y-11.413
G1 X14.809 Y-11.793
G1 X14.895 Y-12.193
G1 X14.913 Y-12.602
G1 X14.861 Y-13.009
G1 X14.741 Y-13.400
G1 X14.556 Y-13.766
G1 X14.171 Y-14.288
G1 X30.972 Y-14.288
G1 X31.498 Y-14.246
G1 X32.017 Y-14.124
G1 X32.492 Y-13.927
G1 X32.931 Y-13.658
G1 X33.323 Y-13.323
G1 X33.658 Y-12.931
G1 X33.927 Y-12.492
G1 X34.125 Y-12.015
G1 X34.245 Y-11.514
G1 X34.288 Y-10.972
G1 X34.288 Y-6.612
G1 X24.878 Y-6.612
G1 X23.764 Y-6.220
G1 X22.784 Y-5.681
G1 X21.952 Y-5.025
G1 X21.155 Y-4.165
G1 X20.545 Y-3.224
G1 X20.099 Y-2.199
G1 X19.826 Y-1.114
G1 X19.734 Y-0.000
G1 X19.826 Y1.114
G1 X20.099 Y2.199
G1 X20.545 Y3.224
G1 X21.121 Y4.113
G1 X21.904 Y4.987
G1 X22.784 Y5.681
G1 X23.764 Y6.220
G1 X24.878 Y6.612
G1 X34.288 Y6.612
G1 X34.288 Y10.972
G1 X34.245 Y11.514
G1 X34.125 Y12.015
G1 X33.927 Y12.492
G1 X33.658 Y12.931
G1 X33.323 Y13.323
G1 X32.931 Y13.658
G1 X32.492 Y13.927
G1 X32.015 Y14.125
G1 X31.514 Y14.245
G1 X30.972 Y14.288
G1 X14.132 Y14.288
G1 X14.442 Y13.936
G1 X14.656 Y13.587
G1 X14.809 Y13.207
G1 X14.895 Y12.807
G1 X14.913 Y12.398
G1 X14.861 Y11.991
G1 X14.741 Y11.600
G1 X14.556 Y11.234
G1 X14.319 Y10.912
G1 X14.018 Y10.622
G1 X13.678 Y10.392
G1 X13.305 Y10.223
G1 X12.908 Y10.120
G1 X12.500 Y10.085
G1 X12.101 Y10.119
G1 X11.697 Y10.222
G1 X11.322 Y10.392
G1 X10.983 Y10.621
G1 X10.687 Y10.904
G1 X10.444 Y11.234
G1 X10.259 Y11.600
G1 X10.142 Y11.982
G1 X10.087 Y12.396
G1 X10.105 Y12.807
G1 X10.191 Y13.207
G1 X10.344 Y13.587
G1 X10.558 Y13.936
G1 X10.868 Y14.288
G1 X-20.808 Y14.288
M700 P0.000000
G1 X-19.959 Y13.838 F24000.000
M700 P0.157461
G1 X-19.759 Y13.339 F1800.000
G1 X-19.657 Y12.864
G1 X-19.636 Y12.378
G1 X-19.698 Y11.896
G1 X-19.840 Y11.431
G1 X-20.059 Y10.997
G1 X-20.348 Y10.606
G1 X-20.699 Y10.270
G1 X-21.102 Y9.998
G1 X-21.545 Y9.797
G1 X-22.016 Y9.675
G1 X-22.500 Y9.634
G1 X-22.974 Y9.674
G1 X-23.453 Y9.796
G1 X-23.898 Y9.998
G1 X-24.301 Y10.270
G1 X-24.652 Y10.606
G1 X-24.941 Y10.997
G1 X-25.160 Y11.431
G1 X-25.302 Y11.896
G1 X-25.363 Y12.368
G1 X-25.344 Y12.862
G1 X-25.241 Y13.339
G1 X-25.041 Y13.838
G1 X-30.954 Y13.838
G1 X-31.443 Y13.799
G1 X-31.876 Y13.695
G1 X-32.287 Y13.525
G1 X-32.666 Y13.293
G1 X-33.004 Y13.004
G1 X-33.293 Y12.666
G1 X-33.525 Y12.287
G1 X-33.695 Y11.876
G1 X-33.799 Y11.443
G1 X-33.838 Y10.954
G1 X-33.838 Y-10.954
G1 X-33.799 Y-11.443
G1 X-33.696 Y-11.875
G1 X-33.523 Y-12.291
G1 X-33.293 Y-12.666
G1 X-33.004 Y-13.004
G1 X-32.666 Y-13.293
G1 X-32.287 Y-13.525
G1 X-31.876 Y-13.695
G1 X-31.443 Y-13.799
G1 X-30.954 Y-13.838
G1 X-25.024 Y-13.838
G1 X-25.160 Y-13.569
G1 X-25.302 Y-13.104
G1 X-25.364 Y-12.622
G1 X-25.343 Y-12.136
G1 X-25.241 Y-11.661
G1 X-25.060 Y-11.210
G1 X-24.805 Y-10.795
G1 X-24.483 Y-10.431
G1 X-24.113 Y-10.132
G1 X-23.683 Y-9.889
G1 X-23.222 Y-9.726
G1 X-22.743 Y-9.644
G1 X-22.257 Y-9.644
G1 X-21.778 Y-9.726
G1 X-21.319 Y-9.888
G1 X-20.895 Y-10.125
G1 X-20.517 Y-10.431
G1 X-20.195 Y-10.795
G1 X-19.940 Y-11.210
G1 X-19.759 Y-11.661
G1 X-19.657 Y-12.136
G1 X-19.636 Y-12.622
G1 X-19.698 Y-13.104
G1 X-19.840 Y-13.569
G1 X-19.976 Y-13.838
G1 X9.976 Y-13.838
G1 X9.840 Y-13.569
G1 X9.698 Y-13.104
G1 X9.636 Y-12.622
G1 X9.657 Y-12.136
G1 X9.759 Y-11.661
G1 X9.940 Y-11.210
G1 X10.195 Y-10.796
G1 X10.517 Y-10.431
G1 X10.895 Y-10.125
G1 X11.319 Y-9.888
G1 X11.778 Y-9.726
G1 X12.257 Y-9.644
G1 X12.743 Y-9.644
G1 X13.222 Y-9.726
G1 X13.681 Y-9.888
G1 X14.105 Y-10.125
G1 X14.483 Y-10.431
G1 X14.805 Y-10.795
G1 X15.060 Y-11.210
G1 X15.241 Y-11.661
G1 X15.343 Y-12.136
G1 X15.364 Y-12.622
G1 X15.302 Y-13.104
G1 X15.160 Y-13.569
G1 X15.024 Y-13.838
G1 X30.954 Y-13.838
G1 X31.429 Y-13.800
G1 X31.878 Y-13.694
G1 X32.287 Y-13.525
G1 X32.666 Y-13.293
G1 X33.004 Y-13.004
G1 X33.293 Y-12.666
G1 X33.525 Y-12.287
G1 X33.695 Y-11.876
G1 X33.799 Y-11.443
G1 X33.838 Y-10.954
G1 X33.838 Y-7.062
G1 X24.801 Y-7.062
G1 X23.579 Y-6.632
G1 X22.535 Y-6.057
G1 X21.646 Y-5.356
G1 X20.798 Y-4.442
G1 X20.147 Y-3.437
G1 X19.672 Y-2.344
G1 X19.381 Y-1.188
G1 X19.283 Y-0.000
G1 X19.381 Y1.188
G1 X19.672 Y2.344
G1 X20.147 Y3.437
G1 X20.763 Y4.387
G1 X21.595 Y5.316
G1 X22.535 Y6.057
G1 X23.579 Y6.632
G1 X24.801 Y7.062
G1 X33.838 Y7.062
G1 X33.838 Y10.954
G1 X33.799 Y11.443
G1 X33.695 Y11.876
G1 X33.525 Y12.287
G1 X33.293 Y12.666
G1 X33.004 Y13.004
G1 X32.666 Y13.293
G1 X32.287 Y13.525
G1 X31.876 Y13.695
G1 X31.443 Y13.799
G1 X30.954 Y13.838
G1 X15.041 Y13.838
G1 X15.241 Y13.339
G1 X15.343 Y12.864
G1 X15.364 Y12.378
G1 X15.302 Y11.896
G1 X15.160 Y11.431
G1 X14.941 Y10.997
G1 X14.658 Y10.615
G1 X14.303 Y10.271
G1 X13.898 Y9.998
G1 X13.455 Y9.797
G1 X12.984 Y9.675
G1 X12.500 Y9.634
G1 X12.026 Y9.674
G1 X11.547 Y9.796
G1 X11.102 Y9.998
G1 X10.699 Y10.270
G1 X10.348 Y10.606
G1 X10.059 Y10.997
G1 X9.840 Y11.431
G1 X9.701 Y11.886
G1 X9.636 Y12.376
G1 X9.657 Y12.864
G1 X9.759 Y13.339
G1 X9.959 Y13.838
G1 X-19.899 Y13.838
G22 ; retract
G1 X3.572 Y-8.510 F24000.000
G23 ; unretract
M700 P0.157461
G1 X3.341 Y-8.773 F1800.000
G1 X3.157 Y-9.071
G1 X3.027 Y-9.396
G1 X2.953 Y-9.738
G1 X2.938 Y-10.088
G1 X2.986 Y-10.443
G1 X3.085 Y-10.769
G1 X3.243 Y-11.082
G1 X3.451 Y-11.363
G1 X3.704 Y-11.605
G1 X3.994 Y-11.801
G1 X4.313 Y-11.946
G1 X4.660 Y-12.035
M700 P0.157461
G1 X5.000 Y-12.063 F1800.000
G1 X5.349 Y-12.034
G1 X5.687 Y-11.946
G1 X6.006 Y-11.801
G1 X6.297 Y-11.605
G1 X6.554 Y-11.356
G1 X6.757 Y-11.082
G1 X6.915 Y-10.769
G1 X7.017 Y-10.435
G1 X7.062 Y-10.088
G1 X7.047 Y-9.738
G1 X6.973 Y-9.396
G1 X6.843 Y-9.071
G1 X6.659 Y-8.773
G1 X6.428 Y-8.510
G1 X6.155 Y-8.290
G1 X5.850 Y-8.120
G1 X5.520 Y-8.003
G1 X5.174 Y-7.944
G1 X4.816 Y-7.946
G1 X4.480 Y-8.003
G1 X4.150 Y-8.120
G1 X3.845 Y-8.290
G1 X3.619 Y-8.473
M700 P0.000000
G1 X3.234 Y-8.422 F24000.000
M700 P0.000000
G1 X3.290 Y-8.160 F24000.000
M700 P0.157461
G1 X2.978 Y-8.505 F1800.000
G1 X2.754 Y-8.868
G1 X2.595 Y-9.264
G1 X2.505 Y-9.681
G1 X2.487 Y-10.108
G1 X2.544 Y-10.539
G1 X2.666 Y-10.938
G1 X2.858 Y-11.319
G1 X3.112 Y-11.662
G1 X3.420 Y-11.957
G1 X3.773 Y-12.196
G1 X4.164 Y-12.372
G1 X4.585 Y-12.480
M700 P0.157461
G1 X5.000 Y-12.515 F1800.000
G1 X5.425 Y-12.479
G1 X5.838 Y-12.371
G1 X6.227 Y-12.196
G1 X6.581 Y-11.956
G1 X6.894 Y-11.654
G1 X7.142 Y-11.319
G1 X7.334 Y-10.938
G1 X7.459 Y-10.530
G1 X7.513 Y-10.107
G1 X7.495 Y-9.681
G1 X7.405 Y-9.264
G1 X7.246 Y-8.868
G1 X7.022 Y-8.505
G1 X6.740 Y-8.184
G1 X6.408 Y-7.916
G1 X6.036 Y-7.708
G1 X5.634 Y-7.566
G1 X5.212 Y-7.494
G1 X4.777 Y-7.496
G1 X4.366 Y-7.566
G1 X3.964 Y-7.708
G1 X3.592 Y-7.916
G1 X3.336 Y-8.123
M700 P0.000000
G1 X3.007 Y-7.810 F24000.000
M700 P0.157461
G1 X2.615 Y-8.236 F1800.000
G1 X2.351 Y-8.664
G1 X2.164 Y-9.131
G1 X2.058 Y-9.623
G1 X2.036 Y-10.129
G1 X2.103 Y-10.636
G1 X2.247 Y-11.106
G1 X2.474 Y-11.555
G1 X2.773 Y-11.960
G1 X3.136 Y-12.308
G1 X3.553 Y-12.590
G1 X4.014 Y-12.798
G1 X4.510 Y-12.925
M700 P0.157461
G1 X5.000 Y-12.966 F1800.000
G1 X5.501 Y-12.924
G1 X5.988 Y-12.797
G1 X6.447 Y-12.590
G1 X6.866 Y-12.307
G1 X7.233 Y-11.951
G1 X7.526 Y-11.555
G1 X7.753 Y-11.106
G1 X7.900 Y-10.625
G1 X7.964 Y-10.126
G1 X7.942 Y-9.623
G1 X7.836 Y-9.131
G1 X7.649 Y-8.664
G1 X7.385 Y-8.236
G1 X7.053 Y-7.858
G1 X6.661 Y-7.542
G1 X6.222 Y-7.297
G1 X5.747 Y-7.129
G1 X5.249 Y-7.044
G1 X4.738 Y-7.046
G1 X4.253 Y-7.129
G1 X3.778 Y-7.297
G1 X3.339 Y-7.542
G1 X3.054 Y-7.773
M700 P0.000000
G1 X-12.953 Y-9.738 F24000.000
M700 P0.157461
G1 X-13.027 Y-9.396 F1800.000
G1 X-13.157 Y-9.071
G1 X-13.341 Y-8.773
G1 X-13.572 Y-8.510
G1 X-13.845 Y-8.290
G1 X-14.150 Y-8.120
G1 X-14.480 Y-8.003
G1 X-14.826 Y-7.944
G1 X-15.184 Y-7.946
G1 X-15.520 Y-8.003
G1 X-15.850 Y-8.120
G1 X-16.155 Y-8.290
G1 X-16.428 Y-8.510
G1 X-16.659 Y-8.773
G1 X-16.843 Y-9.071
G1 X-16.973 Y-9.396
G1 X-17.047 Y-9.738
G1 X-17.060 Y-10.097
G1 X-17.017 Y-10.435
G1 X-16.915 Y-10.769
G1 X-16.757 Y-11.082
G1 X-16.549 Y-11.363
G1 X-16.296 Y-11.605
G1 X-16.006 Y-11.801
G1 X-15.687 Y-11.946
G1 X-15.340 Y-12.035
M700 P0.157461
G1 X-15.000 Y-12.063 F1800.000
G1 X-14.651 Y-12.034
G1 X-14.313 Y-11.946
G1 X-13.994 Y-11.801
G1 X-13.703 Y-11.605
G1 X-13.446 Y-11.356
G1 X-13.243 Y-11.082
G1 X-13.085 Y-10.769
G1 X-12.983 Y-10.435
G1 X-12.938 Y-10.088
G1 X-12.951 Y-9.798
M700 P0.000000
G1 X-12.681 Y-9.518 F24000.000
M700 P0.000000
G1 X-12.513 Y-9.643 F24000.000
M700 P0.157461
G1 X-12.595 Y-9.264 F1800.000
G1 X-12.754 Y-8.868
G1 X-12.978 Y-8.505
G1 X-13.260 Y-8.184
G1 X-13.592 Y-7.916
G1 X-13.964 Y-7.708
G1 X-14.366 Y-7.566
G1 X-14.788 Y-7.494
G1 X-15.223 Y-7.496
G1 X-15.634 Y-7.566
G1 X-16.036 Y-7.708
G1 X-16.408 Y-7.916
G1 X-16.740 Y-8.184
G1 X-17.022 Y-8.505
G1 X-17.246 Y-8.868
G1 X-17.405 Y-9.264
G1 X-17.495 Y-9.682
G1 X-17.511 Y-10.117
G1 X-17.459 Y-10.530
G1 X-17.334 Y-10.938
G1 X-17.142 Y-11.319
G1 X-16.888 Y-11.662
G1 X-16.580 Y-11.957
G1 X-16.227 Y-12.196
G1 X-15.836 Y-12.372
G1 X-15.415 Y-12.480
M700 P0.157461
G1 X-15.000 Y-12.515 F1800.000
G1 X-14.575 Y-12.479
G1 X-14.162 Y-12.371
G1 X-13.773 Y-12.196
G1 X-13.419 Y-11.956
G1 X-13.106 Y-11.654
G1 X-12.858 Y-11.319
G1 X-12.666 Y-10.938
G1 X-12.541 Y-10.530
G1 X-12.487 Y-10.107
G1 X-12.504 Y-9.702
M700 P0.000000
G1 X-12.074 Y-9.548 F24000.000
M700 P0.157461
G1 X-12.164 Y-9.131 F1800.000
G1 X-12.351 Y-8.664
G1 X-12.615 Y-8.236
G1 X-12.947 Y-7.858
G1 X-13.339 Y-7.542
G1 X-13.778 Y-7.297
G1 X-14.253 Y-7.129
G1 X-14.751 Y-7.044
G1 X-15.262 Y-7.046
G1 X-15.747 Y-7.129
G1 X-16.222 Y-7.297
G1 X-16.661 Y-7.542
G1 X-17.053 Y-7.858
G1 X-17.385 Y-8.236
G1 X-17.649 Y-8.664
G1 X-17.836 Y-9.131
G1 X-17.943 Y-9.626
G1 X-17.962 Y-10.137
G1 X-17.900 Y-10.625
G1 X-17.753 Y-11.106
G1 X-17.526 Y-11.555
G1 X-17.227 Y-11.960
G1 X-16.864 Y-12.308
G1 X-16.447 Y-12.590
G1 X-15.986 Y-12.798
G1 X-15.490 Y-12.925
M700 P0.157461
G1 X-15.000 Y-12.966 F1800.000
G1 X-14.499 Y-12.924
G1 X-14.012 Y-12.797
G1 X-13.553 Y-12.590
G1 X-13.134 Y-12.307
G1 X-12.767 Y-11.951
G1 X-12.474 Y-11.555
G1 X-12.247 Y-11.106
G1 X-12.100 Y-10.625
G1 X-12.036 Y-10.126
G1 X-12.061 Y-9.607
M700 P0.000000
G1 X-14.651 Y7.966 F24000.000
M700 P0.157461
G1 X-14.313 Y8.054 F1800.000
G1 X-13.994 Y8.199
G1 X-13.704 Y8.395
G1 X-13.451 Y8.637
G1 X-13.243 Y8.918
G1 X-13.085 Y9.231
G1 X-12.983 Y9.565
G1 X-12.938 Y9.912
G1 X-12.953 Y10.262
G1 X-13.027 Y10.604
G1 X-13.157 Y10.929
G1 X-13.341 Y11.227
G1 X-13.572 Y11.490
G1 X-13.845 Y11.710
G1 X-14.150 Y11.880
G1 X-14.480 Y11.997
G1 X-14.825 Y12.056
G1 X-15.175 Y12.056
G1 X-15.520 Y11.997
G1 X-15.850 Y11.880
G1 X-16.155 Y11.710
G1 X-16.428 Y11.490
G1 X-16.659 Y11.227
G1 X-16.843 Y10.929
G1 X-16.973 Y10.604
G1 X-17.047 Y10.262
G1 X-17.062 Y9.912
G1 X-17.017 Y9.565
G1 X-16.915 Y9.231
G1 X-16.757 Y8.918
G1 X-16.549 Y8.637
G1 X-16.296 Y8.395
G1 X-16.006 Y8.199
G1 X-15.687 Y8.054
G1 X-15.340 Y7.965
M700 P0.157461
G1 X-15.000 Y7.937 F1800.000
G1 X-14.711 Y7.961
M700 P0.000000
G1 X-14.420 Y7.704 F24000.000
M700 P0.000000
G1 X-14.613 Y7.518 F24000.000
M700 P0.157461
G1 X-14.162 Y7.629 F1800.000
G1 X-13.773 Y7.804
G1 X-13.420 Y8.043
G1 X-13.112 Y8.338
G1 X-12.858 Y8.681
G1 X-12.666 Y9.062
G1 X-12.541 Y9.470
G1 X-12.487 Y9.893
G1 X-12.505 Y10.319
G1 X-12.595 Y10.736
G1 X-12.754 Y11.132
G1 X-12.978 Y11.495
G1 X-13.260 Y11.816
G1 X-13.592 Y12.084
G1 X-13.964 Y12.292
G1 X-14.366 Y12.434
G1 X-14.787 Y12.506
G1 X-15.213 Y12.506
G1 X-15.634 Y12.434
G1 X-16.036 Y12.292
G1 X-16.408 Y12.084
G1 X-16.740 Y11.816
G1 X-17.022 Y11.495
G1 X-17.246 Y11.132
G1 X-17.405 Y10.736
G1 X-17.495 Y10.319
G1 X-17.513 Y9.893
G1 X-17.459 Y9.470
G1 X-17.405 Y9.295
G1 X-17.334 Y9.062
G1 X-17.142 Y8.681
G1 X-16.888 Y8.338
G1 X-16.580 Y8.043
G1 X-16.227 Y7.804
G1 X-15.836 Y7.628
G1 X-15.415 Y7.520
M700 P0.157461
G1 X-15.000 Y7.485 F1800.000
G1 X-14.673 Y7.513
M700 P0.000000
G1 X-14.575 Y7.070 F24000.000
M700 P0.157461
G1 X-14.012 Y7.203 F1800.000
G1 X-13.553 Y7.410
G1 X-13.136 Y7.692
G1 X-12.773 Y8.040
G1 X-12.474 Y8.445
G1 X-12.247 Y8.894
G1 X-12.100 Y9.375
G1 X-12.036 Y9.874
G1 X-12.058 Y10.377
G1 X-12.164 Y10.869
G1 X-12.351 Y11.336
G1 X-12.615 Y11.764
G1 X-12.947 Y12.142
G1 X-13.339 Y12.458
G1 X-13.778 Y12.703
G1 X-14.253 Y12.871
G1 X-14.748 Y12.956
G1 X-15.252 Y12.956
G1 X-15.747 Y12.871
G1 X-16.222 Y12.703
G1 X-16.661 Y12.458
G1 X-17.053 Y12.142
G1 X-17.385 Y11.764
G1 X-17.649 Y11.336
G1 X-17.836 Y10.869
G1 X-17.942 Y10.377
G1 X-17.964 Y9.874
G1 X-17.900 Y9.375
G1 X-17.835 Y9.163
G1 X-17.753 Y8.894
G1 X-17.526 Y8.445
G1 X-17.227 Y8.040
G1 X-16.864 Y7.692
G1 X-16.447 Y7.410
G1 X-15.986 Y7.202
G1 X-15.490 Y7.075
M700 P0.157461
G1 X-15.000 Y7.034 F1800.000
G1 X-14.635 Y7.065
M700 P0.000000
G1 X2.983 Y9.565 F24000.000
M700 P0.157461
G1 X3.085 Y9.231 F1800.000
G1 X3.243 Y8.918
G1 X3.451 Y8.637
G1 X3.704 Y8.395
G1 X3.994 Y8.199
G1 X4.313 Y8.054
G1 X4.660 Y7.965
M700 P0.157461
G1 X5.000 Y7.937 F1800.000
G1 X5.349 Y7.966
G1 X5.687 Y8.054
G1 X6.006 Y8.199
G1 X6.297 Y8.395
G1 X6.554 Y8.644
G1 X6.757 Y8.918
G1 X6.915 Y9.231
G1 X7.017 Y9.565
G1 X7.062 Y9.912
G1 X7.047 Y10.262
G1 X6.973 Y10.604
G1 X6.843 Y10.929
G1 X6.659 Y11.227
G1 X6.428 Y11.490
G1 X6.155 Y11.710
G1 X5.850 Y11.880
G1 X5.520 Y11.997
G1 X5.174 Y12.056
G1 X4.816 Y12.054
G1 X4.480 Y11.997
G1 X4.150 Y11.880
G1 X3.845 Y11.710
G1 X3.572 Y11.490
G1 X3.341 Y11.227
G1 X3.157 Y10.929
G1 X3.027 Y10.604
G1 X2.953 Y10.262
G1 X2.938 Y9.912
G1 X2.975 Y9.625
M700 P0.000000
G1 X2.730 Y9.323 F24000.000
M700 P0.000000
G1 X2.537 Y9.508 F24000.000
M700 P0.157461
G1 X2.666 Y9.062 F1800.000
G1 X2.858 Y8.681
G1 X3.112 Y8.338
G1 X3.420 Y8.043
G1 X3.773 Y7.804
G1 X4.164 Y7.628
G1 X4.585 Y7.520
M700 P0.157461
G1 X5.000 Y7.485 F1800.000
G1 X5.425 Y7.521
G1 X5.838 Y7.629
G1 X6.227 Y7.804
G1 X6.581 Y8.044
G1 X6.894 Y8.346
G1 X7.142 Y8.681
G1 X7.334 Y9.062
G1 X7.459 Y9.470
G1 X7.513 Y9.893
G1 X7.495 Y10.319
G1 X7.405 Y10.736
G1 X7.246 Y11.132
G1 X7.022 Y11.495
G1 X6.740 Y11.816
G1 X6.408 Y12.084
G1 X6.036 Y12.292
G1 X5.634 Y12.434
G1 X5.212 Y12.506
G1 X4.777 Y12.504
G1 X4.366 Y12.434
G1 X3.964 Y12.292
G1 X3.592 Y12.084
G1 X3.260 Y11.816
G1 X2.978 Y11.495
G1 X2.754 Y11.132
G1 X2.595 Y10.736
G1 X2.505 Y10.319
G1 X2.487 Y9.893
G1 X2.529 Y9.568
M700 P0.000000
G1 X2.090 Y9.451 F24000.000
M700 P0.157461
G1 X2.247 Y8.894 F1800.000
G1 X2.474 Y8.445
G1 X2.773 Y8.040
G1 X3.136 Y7.692
G1 X3.553 Y7.410
G1 X4.014 Y7.202
G1 X4.510 Y7.075
M700 P0.157461
G1 X5.000 Y7.034 F1800.000
G1 X5.501 Y7.076
G1 X5.988 Y7.203
G1 X6.447 Y7.410
G1 X6.866 Y7.693
G1 X7.233 Y8.049
G1 X7.526 Y8.445
G1 X7.753 Y8.894
G1 X7.900 Y9.375
G1 X7.964 Y9.874
G1 X7.942 Y10.377
G1 X7.836 Y10.869
G1 X7.649 Y11.336
G1 X7.385 Y11.764
G1 X7.053 Y12.142
G1 X6.661 Y12.458
G1 X6.222 Y12.703
G1 X5.747 Y12.871
G1 X5.249 Y12.956
G1 X4.738 Y12.954
G1 X4.253 Y12.871
G1 X3.778 Y12.703
G1 X3.339 Y12.458
G1 X2.947 Y12.142
G1 X2.615 Y11.764
G1 X2.351 Y11.336
G1 X2.164 Y10.869
G1 X2.058 Y10.377
G1 X2.036 Y9.874
G1 X2.083 Y9.510
M700 P0.000000
G1 X-21.141 Y-11.082 F24000.000
M700 P0.157461
G1 X-21.401 Y-10.873 F1800.000
G1 X-21.691 Y-10.711
G1 X-22.005 Y-10.600
G1 X-22.333 Y-10.544
G1 X-22.667 Y-10.544
G1 X-22.995 Y-10.600
G1 X-23.309 Y-10.711
G1 X-23.606 Y-10.879
G1 X-23.859 Y-11.082
G1 X-24.079 Y-11.332
G1 X-24.253 Y-11.616
G1 X-24.377 Y-11.925
G1 X-24.448 Y-12.251
G1 X-24.462 Y-12.583
G1 X-24.419 Y-12.914
G1 X-24.322 Y-13.232
G1 X-24.172 Y-13.529
G1 X-23.974 Y-13.797
G1 X-23.733 Y-14.028
G1 X-23.458 Y-14.214
G1 X-23.154 Y-14.352
G1 X-22.823 Y-14.436
M700 P0.157461
G1 X-22.500 Y-14.463 F1800.000
G1 X-22.168 Y-14.435
G1 X-21.846 Y-14.351
G1 X-21.542 Y-14.214
G1 X-21.266 Y-14.027
G1 X-21.021 Y-13.790
G1 X-20.828 Y-13.529
G1 X-20.678 Y-13.232
G1 X-20.581 Y-12.914
G1 X-20.538 Y-12.583
G1 X-20.552 Y-12.251
G1 X-20.623 Y-11.925
G1 X-20.747 Y-11.616
G1 X-20.921 Y-11.332
G1 X-21.102 Y-11.128
M700 P0.000000
G1 X-21.071 Y-10.757 F24000.000
G22 ; retract
G1 X10.545 Y-12.429 F24000.000
G23 ; unretract
M700 P0.157461
G1 X10.538 Y-12.583 F1800.000
G1 X10.581 Y-12.914
G1 X10.678 Y-13.232
G1 X10.828 Y-13.529
G1 X11.026 Y-13.797
G1 X11.267 Y-14.028
G1 X11.542 Y-14.214
G1 X11.846 Y-14.352
G1 X12.177 Y-14.436
M700 P0.157461
G1 X12.500 Y-14.463 F1800.000
G1 X12.832 Y-14.435
G1 X13.154 Y-14.351
G1 X13.458 Y-14.214
G1 X13.734 Y-14.027
G1 X13.979 Y-13.790
G1 X14.172 Y-13.529
G1 X14.322 Y-13.232
G1 X14.419 Y-12.914
G1 X14.462 Y-12.583
G1 X14.448 Y-12.251
G1 X14.377 Y-11.925
G1 X14.253 Y-11.616
G1 X14.079 Y-11.332
G1 X13.859 Y-11.082
G1 X13.599 Y-10.873
G1 X13.309 Y-10.711
G1 X12.995 Y-10.600
G1 X12.667 Y-10.544
G1 X12.333 Y-10.544
G1 X12.005 Y-10.600
G1 X11.691 Y-10.711
G1 X11.401 Y-10.873
G1 X11.141 Y-11.082
G1 X10.921 Y-11.332
G1 X10.747 Y-11.616
G1 X10.623 Y-11.925
G1 X10.552 Y-12.251
G1 X10.547 Y-12.369
M700 P0.000000
G1 X10.408 Y-12.500 F24000.000
M700 P0.000000
G1 X12.500 Y10.537 F24000.000
M700 P0.157461
G1 X12.832 Y10.565 F1800.000
G1 X13.154 Y10.649
G1 X13.458 Y10.786
G1 X13.734 Y10.973
G1 X13.979 Y11.210
G1 X14.172 Y11.471
G1 X14.322 Y11.768
G1 X14.419 Y12.086
G1 X14.462 Y12.417
G1 X14.448 Y12.749
G1 X14.377 Y13.075
G1 X14.253 Y13.384
G1 X14.079 Y13.668
G1 X13.859 Y13.918
G1 X13.599 Y14.127
G1 X13.309 Y14.289
G1 X12.995 Y14.400
G1 X12.667 Y14.456
G1 X12.333 Y14.456
G1 X12.005 Y14.400
G1 X11.684 Y14.285
G1 X11.401 Y14.127
G1 X11.141 Y13.918
G1 X10.921 Y13.668
G1 X10.747 Y13.384
G1 X10.623 Y13.075
G1 X10.552 Y12.749
G1 X10.538 Y12.416
G1 X10.583 Y12.078
G1 X10.678 Y11.768
G1 X10.828 Y11.471
G1 X11.026 Y11.203
G1 X11.267 Y10.972
G1 X11.542 Y10.786
G1 X11.846 Y10.648
G1 X12.177 Y10.564
M700 P0.157461
G1 X12.440 Y10.542 F1800.000
M700 P0.000000
G1 X12.675 Y10.253 F24000.000
M700 P0.000000
G1 X6.070 Y13.330 F24000.000
M700 P0.341211
G1 X5.267 Y13.397 F1800.000
G1 X4.681 Y13.394
G1 X3.930 Y13.330
M700 P0.000000
G1 X-13.930 Y13.330 F24000.000
M700 P0.341211
G1 X-14.729 Y13.397 F1800.000
G1 X-15.307 Y13.395
G1 X-16.070 Y13.330
G22 ; retract
G1 X-16.046 Y-13.319 F24000.000
G23 ; unretract
M700 P0.341211
G1 X-15.548 Y-13.380 F1800.000
G1 X-14.982 Y-13.402
G1 X-14.441 Y-13.379
G1 X-13.954 Y-13.319
M700 P0.000000
G1 X3.954 Y-13.319 F24000.000
M700 P0.341211
G1 X4.452 Y-13.380 F1800.000
G1 X5.018 Y-13.402
G1 X5.559 Y-13.379
G1 X6.046 Y-13.319
M700 P0.000000
G1 X6.440 Y-13.385 F24000.000
M700 P0.157461
G1 X6.634 Y-13.455 F1800.000
M700 P0.000000
G1 X6.836 Y-13.455 F24000.000
M700 P0.157461
G1 X6.967 Y-13.098 F1800.000
G1 X6.570 Y-12.953
M700 P0.000000
G1 X7.045 Y-12.647 F24000.000
M700 P0.157461
G1 X7.543 Y-12.829 F1800.000
G1 X7.697 Y-12.406
G1 X8.120 Y-12.560
G1 X7.966 Y-12.983
G1 X8.812 Y-13.290
G1 X8.965 Y-12.868
G1 X8.543 Y-12.714
G1 X8.697 Y-12.291
G1 X9.119 Y-12.445
G1 X9.273 Y-12.022
G1 X8.428 Y-11.714
G1 X8.274 Y-12.137
G1 X7.851 Y-11.983
G1 X8.313 Y-10.715
G1 X8.735 Y-10.869
G1 X8.582 Y-11.292
G1 X9.385 Y-11.584
M700 P0.000000
G1 X9.547 Y-11.164 F24000.000
M700 P0.157461
G1 X9.158 Y-11.023 F1800.000
G1 X9.312 Y-10.600
G1 X9.735 Y-10.754
G1 X9.889 Y-10.331
G1 X9.043 Y-10.023
G1 X8.889 Y-10.446
G1 X8.467 Y-10.292
G1 X8.620 Y-9.869
G1 X8.331 Y-9.764
M700 P0.000000
G1 X8.255 Y-9.258 F24000.000
M700 P0.157461
G1 X8.351 Y-9.293 F1800.000
G1 X8.505 Y-8.870
G1 X8.083 Y-8.716
G1 X8.236 Y-8.293
G1 X8.659 Y-8.447
G1 X8.813 Y-8.025
G1 X7.968 Y-7.717
G1 X7.814 Y-8.140
G1 X7.763 Y-8.121
M700 P0.000000
G1 X7.474 Y-7.758 F24000.000
M700 P0.157461
G1 X7.699 Y-7.140 F1800.000
G1 X8.121 Y-7.294
G1 X8.275 Y-6.871
G1 X7.853 Y-6.717
G1 X8.160 Y-5.872
G1 X8.583 Y-6.026
G1 X8.429 Y-6.449
G1 X8.852 Y-6.602
G1 X9.006 Y-6.180
G1 X9.429 Y-6.334
G1 X9.121 Y-7.179
G1 X8.698 Y-7.025
G1 X8.544 Y-7.448
G1 X9.390 Y-7.756
G1 X9.812 Y-7.910
G1 X9.966 Y-7.487
G1 X9.544 Y-7.333
G1 X9.851 Y-6.487
G1 X10.274 Y-6.641
G1 X10.120 Y-7.064
G1 X10.543 Y-7.218
G1 X10.697 Y-6.795
G1 X11.120 Y-6.949
G1 X10.812 Y-7.795
G1 X10.389 Y-7.641
G1 X10.235 Y-8.063
G1 X10.658 Y-8.217
G1 X10.350 Y-9.063
G1 X9.928 Y-8.909
G1 X10.081 Y-8.486
G1 X9.236 Y-8.178
G1 X9.082 Y-8.601
G1 X9.505 Y-8.755
G1 X9.351 Y-9.178
G1 X8.928 Y-9.024
G1 X8.774 Y-9.447
G1 X9.620 Y-9.754
G1 X9.774 Y-9.332
G1 X10.196 Y-9.486
G1 X10.043 Y-9.908
G1 X10.395 Y-10.037
M700 P0.000000
G1 X10.507 Y-9.946 F24000.000
M700 P0.157461
G1 X10.619 Y-9.639 F1800.000
G1 X10.838 Y-9.719
M700 P0.000000
G1 X12.191 Y-9.267 F24000.000
M700 P0.157461
G1 X11.350 Y-8.948 F1800.000
G1 X11.196 Y-9.371
G1 X10.773 Y-9.217
G1 X11.081 Y-8.371
G1 X11.504 Y-8.525
G1 X11.657 Y-8.102
G1 X11.235 Y-7.948
G1 X11.542 Y-7.103
G1 X11.965 Y-7.257
G1 X11.811 Y-7.680
G1 X12.234 Y-7.833
G1 X12.388 Y-7.411
G1 X12.811 Y-7.565
G1 X12.503 Y-8.410
G1 X12.080 Y-8.256
G1 X11.926 Y-8.679
G1 X13.195 Y-9.141
G1 X13.348 Y-8.718
G1 X12.926 Y-8.564
G1 X13.233 Y-7.718
G1 X13.656 Y-7.872
G1 X13.502 Y-8.295
G1 X13.925 Y-8.449
G1 X14.079 Y-8.026
G1 X14.502 Y-8.180
G1 X14.194 Y-9.026
G1 X13.771 Y-8.872
G1 X13.617 Y-9.294
G1 X14.040 Y-9.448
G1 X13.979 Y-9.617
M700 P0.000000
G1 X14.373 Y-9.850 F24000.000
M700 P0.157461
G1 X14.463 Y-9.602 F1800.000
G1 X14.886 Y-9.756
G1 X15.039 Y-9.333
G1 X14.617 Y-9.179
G1 X14.924 Y-8.334
G1 X15.347 Y-8.488
G1 X15.193 Y-8.911
G1 X15.616 Y-9.064
G1 X15.770 Y-8.642
G1 X16.193 Y-8.795
G1 X15.885 Y-9.641
G1 X15.462 Y-9.487
G1 X15.308 Y-9.910
G1 X16.577 Y-10.372
G1 X16.730 Y-9.949
G1 X16.308 Y-9.795
G1 X16.615 Y-8.949
G1 X17.038 Y-9.103
G1 X16.884 Y-9.526
G1 X17.307 Y-9.680
G1 X17.461 Y-9.257
G1 X17.884 Y-9.411
G1 X17.576 Y-10.256
G1 X17.153 Y-10.103
G1 X16.999 Y-10.525
G1 X17.422 Y-10.679
G1 X17.114 Y-11.525
G1 X16.692 Y-11.371
G1 X16.846 Y-10.948
G1 X16.000 Y-10.640
G1 X15.846 Y-11.063
G1 X16.269 Y-11.217
G1 X16.115 Y-11.640
G1 X15.692 Y-11.486
G1 X15.631 Y-11.655
M700 P0.000000
G1 X15.698 Y-11.967 F24000.000
M700 P0.157461
G1 X16.384 Y-12.216 F1800.000
G1 X16.538 Y-11.794
G1 X16.961 Y-11.948
G1 X16.807 Y-12.370
G1 X17.229 Y-12.524
G1 X17.383 Y-12.101
G1 X17.806 Y-12.255
G1 X17.652 Y-12.678
G1 X18.498 Y-12.986
G1 X18.652 Y-12.563
G1 X18.229 Y-12.409
G1 X18.383 Y-11.986
G1 X18.805 Y-12.140
G1 X18.959 Y-11.717
G1 X18.114 Y-11.410
G1 X17.960 Y-11.833
G1 X17.537 Y-11.679
G1 X17.845 Y-10.833
G1 X18.268 Y-10.987
G1 X18.422 Y-10.564
G1 X17.999 Y-10.410
G1 X18.307 Y-9.565
G1 X18.729 Y-9.719
G1 X18.575 Y-10.141
G1 X18.998 Y-10.295
G1 X19.152 Y-9.873
G1 X19.575 Y-10.026
G1 X19.267 Y-10.872
G1 X18.844 Y-10.718
G1 X18.690 Y-11.141
G1 X19.959 Y-11.602
G1 X20.113 Y-11.180
G1 X19.690 Y-11.026
G1 X19.998 Y-10.180
G1 X20.420 Y-10.334
G1 X20.266 Y-10.757
G1 X20.689 Y-10.911
G1 X20.843 Y-10.488
G1 X21.266 Y-10.642
G1 X20.958 Y-11.487
G1 X20.535 Y-11.334
G1 X20.381 Y-11.756
G1 X20.804 Y-11.910
G1 X20.496 Y-12.756
G1 X20.074 Y-12.602
G1 X20.228 Y-12.179
G1 X19.382 Y-11.871
G1 X19.228 Y-12.294
G1 X19.651 Y-12.448
G1 X19.497 Y-12.871
G1 X19.074 Y-12.717
G1 X18.920 Y-13.140
G1 X19.766 Y-13.447
G1 X19.920 Y-13.025
G1 X20.343 Y-13.178
G1 X20.242 Y-13.455
M700 P0.000000
G1 X20.721 Y-13.455 F24000.000
M700 P0.157461
G1 X20.765 Y-13.332 F1800.000
G1 X21.103 Y-13.455
M700 P0.000000
G1 X21.678 Y-13.455 F24000.000
M700 P0.157461
G1 X21.765 Y-13.217 F1800.000
G1 X22.187 Y-13.371
G1 X22.341 Y-12.948
G1 X21.496 Y-12.641
G1 X21.342 Y-13.063
G1 X20.919 Y-12.910
G1 X21.227 Y-12.064
G1 X21.650 Y-12.218
G1 X21.804 Y-11.795
G1 X21.381 Y-11.641
G1 X21.689 Y-10.796
G1 X22.111 Y-10.950
G1 X21.957 Y-11.372
G1 X22.380 Y-11.526
G1 X22.534 Y-11.104
G1 X22.957 Y-11.257
G1 X22.649 Y-12.103
G1 X22.226 Y-11.949
G1 X22.072 Y-12.372
G1 X22.495 Y-12.526
G1 X23.341 Y-12.833
G1 X23.495 Y-12.411
G1 X23.072 Y-12.257
G1 X23.380 Y-11.411
G1 X23.802 Y-11.565
G1 X23.648 Y-11.988
G1 X24.071 Y-12.142
G1 X24.225 Y-11.719
G1 X24.648 Y-11.873
G1 X24.340 Y-12.718
G1 X23.917 Y-12.565
G1 X23.764 Y-12.987
G1 X24.186 Y-13.141
G1 X24.072 Y-13.455
M700 P0.000000
G1 X24.551 Y-13.455 F24000.000
M700 P0.157461
G1 X24.609 Y-13.295 F1800.000
G1 X25.032 Y-13.449
G1 X25.186 Y-13.026
G1 X24.763 Y-12.872
G1 X25.071 Y-12.027
G1 X25.493 Y-12.181
G1 X25.340 Y-12.603
G1 X25.762 Y-12.757
G1 X25.916 Y-12.335
G1 X26.339 Y-12.488
G1 X26.031 Y-13.334
G1 X25.608 Y-13.180
G1 X25.508 Y-13.455
M700 P0.000000
G1 X26.466 Y-13.455 F24000.000
M700 P0.157461
G1 X26.762 Y-12.642 F1800.000
G1 X27.184 Y-12.796
G1 X27.031 Y-13.219
G1 X27.453 Y-13.373
G1 X27.607 Y-12.950
G1 X28.030 Y-13.104
G1 X27.902 Y-13.455
M700 P0.000000
G1 X28.381 Y-13.455 F24000.000
M700 P0.157461
G1 X28.453 Y-13.258 F1800.000
G1 X28.875 Y-13.412
G1 X28.860 Y-13.455
M700 P0.000000
G1 X30.311 Y-13.455 F24000.000
M700 P0.157461
G1 X30.298 Y-13.450 F1800.000
G1 X30.605 Y-12.605
G1 X31.028 Y-12.759
G1 X31.182 Y-12.336
G1 X29.914 Y-11.874
G1 X29.760 Y-12.297
G1 X30.183 Y-12.451
G1 X29.875 Y-13.297
G1 X29.452 Y-13.143
G1 X29.606 Y-12.720
G1 X29.183 Y-12.566
G1 X29.029 Y-12.989
G1 X28.607 Y-12.835
G1 X28.914 Y-11.989
G1 X29.337 Y-12.143
G1 X29.491 Y-11.721
G1 X29.068 Y-11.567
G1 X29.376 Y-10.721
G1 X29.799 Y-10.875
G1 X29.645 Y-11.298
G1 X30.068 Y-11.452
G1 X30.490 Y-11.606
G1 X30.644 Y-11.183
G1 X30.221 Y-11.029
G1 X30.375 Y-10.606
G1 X30.798 Y-10.760
G1 X30.952 Y-10.337
G1 X30.106 Y-10.030
G1 X29.953 Y-10.452
G1 X29.530 Y-10.298
G1 X29.838 Y-9.453
G1 X30.260 Y-9.607
G1 X30.414 Y-9.184
G1 X29.991 Y-9.030
G1 X30.299 Y-8.185
G1 X30.722 Y-8.339
G1 X30.568 Y-8.761
G1 X30.991 Y-8.915
G1 X31.145 Y-8.492
G1 X31.567 Y-8.646
G1 X31.260 Y-9.492
G1 X30.837 Y-9.338
G1 X30.683 Y-9.761
G1 X31.529 Y-10.068
G1 X31.682 Y-9.646
G1 X32.105 Y-9.800
G1 X31.951 Y-10.222
G1 X32.797 Y-10.530
G1 X32.951 Y-10.107
G1 X32.528 Y-9.953
G1 X32.682 Y-9.531
G1 X33.105 Y-9.685
G1 X33.258 Y-9.262
G1 X32.413 Y-8.954
G1 X32.259 Y-9.377
G1 X31.836 Y-9.223
G1 X32.298 Y-7.955
G1 X32.721 Y-8.109
G1 X32.567 Y-8.531
G1 X33.412 Y-8.839
G1 X33.455 Y-8.721
M700 P0.000000
G1 X33.455 Y-8.376 F24000.000
M700 P0.157461
G1 X33.143 Y-8.262 F1800.000
G1 X33.297 Y-7.840
G1 X33.455 Y-7.897
M700 P0.000000
G1 X32.962 Y-7.445 F24000.000
M700 P0.157461
G1 X32.875 Y-7.686 F1800.000
G1 X32.452 Y-7.532
G1 X32.484 Y-7.445
M700 P0.000000
G1 X32.005 Y-7.445 F24000.000
M700 P0.157461
G1 X31.721 Y-8.224 F1800.000
G1 X31.299 Y-8.070
G1 X31.452 Y-7.647
G1 X31.030 Y-7.493
G1 X30.876 Y-7.916
G1 X30.453 Y-7.762
G1 X30.568 Y-7.445
M700 P0.000000
G1 X30.090 Y-7.445 F24000.000
M700 P0.157461
G1 X30.030 Y-7.608 F1800.000
G1 X29.611 Y-7.445
M700 P0.000000
G1 X28.175 Y-7.445 F24000.000
M700 P0.157461
G1 X28.031 Y-7.838 F1800.000
G1 X27.609 Y-7.684
G1 X27.696 Y-7.445
M700 P0.000000
G1 X26.951 Y-7.445 F24000.000
M700 P0.157461
G1 X27.186 Y-7.530 F1800.000
G1 X27.032 Y-7.953
G1 X26.609 Y-7.799
G1 X26.455 Y-8.222
G1 X27.301 Y-8.530
G1 X27.455 Y-8.107
G1 X27.878 Y-8.261
G1 X27.724 Y-8.684
G1 X28.569 Y-8.991
G1 X28.723 Y-8.569
G1 X28.300 Y-8.415
G1 X28.608 Y-7.569
G1 X29.031 Y-7.723
G1 X28.877 Y-8.146
G1 X29.300 Y-8.300
G1 X29.454 Y-7.877
G1 X29.876 Y-8.031
G1 X29.569 Y-8.876
G1 X29.146 Y-8.722
G1 X28.992 Y-9.145
G1 X29.415 Y-9.299
G1 X29.107 Y-10.145
G1 X28.684 Y-9.991
G1 X28.838 Y-9.568
G1 X27.993 Y-9.260
G1 X27.839 Y-9.683
G1 X28.262 Y-9.837
G1 X28.108 Y-10.260
G1 X27.685 Y-10.106
G1 X27.531 Y-10.528
G1 X28.377 Y-10.836
G1 X28.530 Y-10.413
G1 X28.953 Y-10.567
G1 X28.645 Y-11.413
G1 X28.223 Y-11.259
G1 X28.069 Y-11.682
G1 X28.492 Y-11.836
G1 X28.184 Y-12.681
G1 X27.761 Y-12.527
G1 X27.915 Y-12.105
G1 X27.492 Y-11.951
G1 X27.338 Y-12.373
G1 X26.916 Y-12.220
G1 X27.223 Y-11.374
G1 X27.646 Y-11.528
G1 X27.800 Y-11.105
G1 X26.532 Y-10.643
G1 X26.378 Y-11.066
G1 X26.801 Y-11.220
G1 X26.493 Y-12.066
G1 X26.070 Y-11.912
G1 X26.224 Y-11.489
G1 X25.801 Y-11.335
G1 X25.647 Y-11.758
G1 X25.225 Y-11.604
G1 X25.532 Y-10.759
G1 X25.955 Y-10.912
G1 X26.109 Y-10.490
G1 X25.686 Y-10.336
G1 X25.994 Y-9.490
G1 X26.417 Y-9.644
G1 X26.263 Y-10.067
G1 X27.108 Y-10.375
G1 X27.262 Y-9.952
G1 X26.839 Y-9.798
G1 X26.993 Y-9.375
G1 X27.416 Y-9.529
G1 X27.570 Y-9.106
G1 X26.724 Y-8.799
G1 X26.570 Y-9.221
G1 X26.148 Y-9.067
G1 X26.302 Y-8.645
G1 X25.879 Y-8.491
G1 X25.725 Y-8.914
G1 X25.302 Y-8.760
G1 X25.456 Y-8.337
G1 X24.611 Y-8.029
G1 X24.457 Y-8.452
G1 X24.879 Y-8.606
G1 X24.726 Y-9.029
G1 X24.303 Y-8.875
G1 X24.149 Y-9.298
G1 X24.994 Y-9.605
G1 X25.148 Y-9.182
G1 X25.571 Y-9.336
G1 X25.263 Y-10.182
G1 X24.841 Y-10.028
G1 X24.687 Y-10.451
G1 X25.109 Y-10.605
G1 X24.802 Y-11.450
G1 X24.379 Y-11.296
G1 X24.533 Y-10.874
G1 X24.110 Y-10.720
G1 X23.956 Y-11.142
G1 X23.533 Y-10.989
G1 X23.841 Y-10.143
G1 X24.264 Y-10.297
G1 X24.418 Y-9.874
G1 X23.150 Y-9.413
G1 X22.996 Y-9.835
G1 X23.418 Y-9.989
G1 X23.111 Y-10.835
G1 X22.688 Y-10.681
G1 X22.842 Y-10.258
G1 X22.419 Y-10.104
G1 X22.265 Y-10.527
G1 X21.842 Y-10.373
G1 X22.150 Y-9.528
G1 X22.573 Y-9.681
G1 X22.727 Y-9.259
G1 X22.304 Y-9.105
G1 X22.612 Y-8.259
G1 X23.035 Y-8.413
G1 X22.881 Y-8.836
G1 X23.726 Y-9.144
G1 X23.880 Y-8.721
G1 X23.457 Y-8.567
G1 X23.611 Y-8.144
G1 X24.034 Y-8.298
G1 X24.188 Y-7.875
G1 X23.342 Y-7.568
G1 X23.188 Y-7.990
G1 X22.766 Y-7.837
G1 X23.073 Y-6.991
G1 X23.496 Y-7.145
G1 X23.540 Y-7.023
M700 P0.000000
G1 X23.965 Y-7.173 F24000.000
M700 P0.157461
G1 X23.919 Y-7.299 F1800.000
G1 X24.764 Y-7.606
G1 X24.823 Y-7.445
M700 P0.000000
G1 X25.302 Y-7.445 F24000.000
M700 P0.157461
G1 X25.187 Y-7.760 F1800.000
G1 X26.033 Y-8.068
G1 X26.187 Y-7.645
G1 X25.764 Y-7.491
G1 X25.781 Y-7.445
M700 P0.000000
G1 X22.337 Y-6.384 F24000.000
M700 P0.157461
G1 X22.228 Y-6.683 F1800.000
G1 X22.651 Y-6.837
G1 X22.343 Y-7.683
G1 X21.920 Y-7.529
G1 X22.074 Y-7.106
G1 X21.229 Y-6.798
G1 X21.075 Y-7.221
G1 X21.497 Y-7.375
G1 X21.344 Y-7.798
G1 X20.921 Y-7.644
G1 X20.767 Y-8.067
G1 X21.612 Y-8.374
G1 X21.766 Y-7.952
G1 X22.189 Y-8.105
G1 X21.881 Y-8.951
G1 X21.459 Y-8.797
G1 X21.305 Y-9.220
G1 X21.727 Y-9.374
G1 X21.420 Y-10.219
G1 X20.997 Y-10.065
G1 X21.151 Y-9.643
G1 X20.728 Y-9.489
G1 X20.574 Y-9.911
G1 X20.151 Y-9.758
G1 X20.459 Y-8.912
G1 X20.882 Y-9.066
G1 X21.036 Y-8.643
G1 X20.613 Y-8.489
G1 X19.768 Y-8.182
G1 X19.614 Y-8.604
G1 X20.036 Y-8.758
G1 X19.729 Y-9.604
G1 X19.306 Y-9.450
G1 X19.460 Y-9.027
G1 X19.037 Y-8.873
G1 X18.883 Y-9.296
G1 X18.460 Y-9.142
G1 X18.768 Y-8.297
G1 X19.191 Y-8.450
G1 X19.345 Y-8.028
G1 X18.922 Y-7.874
G1 X19.230 Y-7.028
G1 X19.652 Y-7.182
G1 X19.499 Y-7.605
G1 X20.344 Y-7.913
G1 X20.498 Y-7.490
G1 X20.075 Y-7.336
G1 X20.229 Y-6.913
G1 X20.652 Y-7.067
G1 X20.806 Y-6.644
G1 X19.960 Y-6.337
G1 X19.806 Y-6.759
G1 X19.384 Y-6.606
G1 X19.537 Y-6.183
G1 X19.115 Y-6.029
G1 X18.961 Y-6.452
G1 X18.538 Y-6.298
G1 X18.692 Y-5.875
G1 X17.846 Y-5.567
G1 X17.693 Y-5.990
G1 X18.115 Y-6.144
G1 X17.961 Y-6.567
G1 X17.539 Y-6.413
G1 X17.385 Y-6.836
G1 X18.230 Y-7.143
G1 X18.384 Y-6.721
G1 X18.807 Y-6.874
G1 X18.499 Y-7.720
G1 X18.076 Y-7.566
G1 X17.923 Y-7.989
G1 X18.345 Y-8.143
G1 X18.038 Y-8.988
G1 X17.615 Y-8.834
G1 X17.769 Y-8.412
G1 X17.346 Y-8.258
G1 X17.192 Y-8.680
G1 X16.769 Y-8.527
G1 X17.077 Y-7.681
G1 X17.500 Y-7.835
G1 X17.654 Y-7.412
G1 X16.808 Y-7.104
G1 X16.385 Y-6.951
G1 X16.232 Y-7.373
G1 X16.654 Y-7.527
G1 X16.347 Y-8.373
G1 X15.924 Y-8.219
G1 X16.078 Y-7.796
G1 X15.655 Y-7.642
G1 X15.501 Y-8.065
G1 X15.078 Y-7.911
G1 X15.386 Y-7.066
G1 X15.809 Y-7.219
G1 X15.963 Y-6.797
G1 X15.540 Y-6.643
G1 X15.848 Y-5.797
G1 X16.270 Y-5.951
G1 X16.117 Y-6.374
G1 X16.962 Y-6.682
G1 X17.116 Y-6.259
G1 X16.693 Y-6.105
G1 X16.847 Y-5.682
G1 X17.270 Y-5.836
G1 X17.424 Y-5.413
G1 X16.578 Y-5.106
G1 X16.424 Y-5.528
G1 X16.002 Y-5.375
G1 X16.309 Y-4.529
G1 X16.732 Y-4.683
G1 X16.886 Y-4.260
G1 X16.463 Y-4.106
G1 X16.771 Y-3.261
G1 X17.194 Y-3.415
G1 X17.040 Y-3.837
G1 X17.463 Y-3.991
G1 X17.616 Y-3.569
G1 X18.039 Y-3.722
G1 X17.731 Y-4.568
G1 X17.309 Y-4.414
G1 X17.155 Y-4.837
G1 X18.000 Y-5.145
G1 X18.154 Y-4.722
G1 X18.577 Y-4.876
G1 X18.423 Y-5.298
G1 X19.269 Y-5.606
G1 X19.422 Y-5.183
G1 X19.000 Y-5.030
G1 X19.154 Y-4.607
G1 X19.576 Y-4.761
G1 X19.730 Y-4.338
G1 X18.885 Y-4.030
G1 X18.731 Y-4.453
G1 X18.308 Y-4.299
G1 X18.770 Y-3.031
G1 X19.192 Y-3.185
G1 X19.039 Y-3.607
G1 X19.884 Y-3.915
G1 X19.926 Y-3.799
M700 P0.000000
G1 X19.701 Y-3.370 F24000.000
M700 P0.157461
G1 X19.615 Y-3.338 F1800.000
G1 X19.648 Y-3.248
M700 P0.000000
G1 X19.387 Y-2.649 F24000.000
M700 P0.157461
G1 X19.346 Y-2.762 F1800.000
G1 X18.924 Y-2.608
G1 X19.077 Y-2.185
G1 X18.232 Y-1.877
G1 X18.078 Y-2.300
G1 X18.501 Y-2.454
G1 X18.193 Y-3.300
G1 X17.770 Y-3.146
G1 X17.924 Y-2.723
G1 X17.501 Y-2.569
G1 X17.348 Y-2.992
G1 X16.925 Y-2.838
G1 X17.233 Y-1.993
G1 X17.655 Y-2.146
G1 X17.809 Y-1.724
G1 X16.541 Y-1.262
G1 X16.387 Y-1.685
G1 X16.810 Y-1.839
G1 X16.502 Y-2.684
G1 X16.079 Y-2.530
G1 X16.233 Y-2.108
G1 X15.810 Y-1.954
G1 X15.656 Y-2.376
G1 X15.234 Y-2.223
G1 X15.541 Y-1.377
G1 X15.964 Y-1.531
G1 X16.118 Y-1.108
G1 X15.273 Y-0.800
G1 X15.119 Y-1.223
G1 X14.696 Y-1.069
G1 X14.850 Y-0.647
G1 X14.004 Y-0.339
G1 X13.850 Y-0.762
G1 X14.273 Y-0.915
G1 X14.119 Y-1.338
G1 X13.697 Y-1.184
G1 X13.543 Y-1.607
G1 X14.388 Y-1.915
G1 X14.542 Y-1.492
G1 X14.965 Y-1.646
G1 X14.811 Y-2.069
G1 X14.503 Y-2.914
G1 X14.080 Y-2.760
G1 X14.234 Y-2.338
G1 X13.389 Y-2.030
G1 X13.235 Y-2.453
G1 X13.658 Y-2.606
G1 X13.504 Y-3.029
G1 X13.081 Y-2.875
G1 X12.927 Y-3.298
G1 X13.773 Y-3.606
G1 X13.927 Y-3.183
G1 X14.349 Y-3.337
G1 X14.195 Y-3.760
G1 X15.041 Y-4.067
G1 X15.195 Y-3.645
G1 X14.772 Y-3.491
G1 X15.080 Y-2.645
G1 X15.503 Y-2.799
G1 X15.349 Y-3.222
G1 X15.772 Y-3.376
G1 X15.925 Y-2.953
G1 X16.348 Y-3.107
G1 X16.040 Y-3.952
G1 X15.618 Y-3.799
G1 X15.464 Y-4.221
G1 X15.887 Y-4.375
G1 X15.579 Y-5.221
G1 X15.156 Y-5.067
G1 X15.310 Y-4.644
G1 X14.464 Y-4.336
G1 X14.311 Y-4.759
G1 X14.733 Y-4.913
G1 X14.579 Y-5.336
G1 X14.157 Y-5.182
G1 X14.003 Y-5.605
G1 X14.848 Y-5.912
G1 X15.002 Y-5.490
G1 X15.425 Y-5.643
G1 X15.117 Y-6.489
G1 X14.694 Y-6.335
G1 X14.541 Y-6.758
G1 X14.963 Y-6.912
G1 X14.656 Y-7.757
G1 X14.233 Y-7.603
G1 X14.387 Y-7.181
G1 X13.964 Y-7.027
G1 X13.810 Y-7.450
G1 X13.387 Y-7.296
G1 X13.695 Y-6.450
G1 X14.118 Y-6.604
G1 X14.272 Y-6.181
G1 X13.003 Y-5.720
G1 X12.850 Y-6.142
G1 X13.272 Y-6.296
G1 X12.965 Y-7.142
G1 X12.542 Y-6.988
G1 X12.696 Y-6.565
G1 X12.273 Y-6.411
G1 X12.119 Y-6.834
G1 X11.696 Y-6.680
G1 X12.004 Y-5.835
G1 X12.427 Y-5.989
G1 X12.581 Y-5.566
G1 X12.158 Y-5.412
G1 X12.466 Y-4.566
G1 X12.888 Y-4.720
G1 X12.734 Y-5.143
G1 X13.580 Y-5.451
G1 X13.734 Y-5.028
G1 X13.311 Y-4.874
G1 X13.465 Y-4.451
G1 X13.888 Y-4.605
G1 X14.042 Y-4.182
G1 X13.196 Y-3.875
G1 X13.042 Y-4.297
G1 X12.619 Y-4.144
G1 X12.773 Y-3.721
G1 X12.351 Y-3.567
G1 X12.197 Y-3.990
G1 X11.774 Y-3.836
G1 X11.928 Y-3.413
G1 X11.082 Y-3.105
G1 X10.928 Y-3.528
G1 X11.351 Y-3.682
G1 X11.197 Y-4.105
G1 X10.775 Y-3.951
G1 X10.621 Y-4.374
G1 X11.466 Y-4.681
G1 X11.620 Y-4.259
G1 X12.043 Y-4.412
G1 X11.735 Y-5.258
G1 X11.312 Y-5.104
G1 X11.158 Y-5.527
G1 X11.581 Y-5.681
G1 X11.273 Y-6.526
G1 X10.851 Y-6.372
G1 X11.005 Y-5.950
G1 X10.582 Y-5.796
G1 X10.428 Y-6.219
G1 X10.005 Y-6.065
G1 X10.313 Y-5.219
G1 X10.736 Y-5.373
G1 X10.890 Y-4.950
G1 X9.621 Y-4.489
G1 X9.467 Y-4.911
G1 X9.890 Y-5.065
G1 X9.582 Y-5.911
G1 X9.160 Y-5.757
G1 X9.314 Y-5.334
G1 X8.891 Y-5.180
G1 X8.737 Y-5.603
G1 X8.314 Y-5.449
G1 X8.622 Y-4.604
G1 X9.045 Y-4.758
G1 X9.199 Y-4.335
G1 X8.776 Y-4.181
G1 X9.084 Y-3.335
G1 X9.506 Y-3.489
G1 X9.352 Y-3.912
G1 X10.198 Y-4.220
G1 X10.352 Y-3.797
G1 X9.929 Y-3.643
G1 X10.083 Y-3.220
G1 X10.506 Y-3.374
G1 X10.660 Y-2.951
G1 X9.814 Y-2.644
G1 X9.660 Y-3.067
G1 X9.237 Y-2.913
G1 X9.545 Y-2.067
G1 X9.968 Y-2.221
G1 X10.122 Y-1.798
G1 X9.699 Y-1.644
G1 X10.007 Y-0.799
G1 X10.430 Y-0.953
G1 X10.276 Y-1.375
G1 X10.698 Y-1.529
G1 X10.852 Y-1.107
G1 X11.275 Y-1.260
G1 X10.967 Y-2.106
G1 X10.545 Y-1.952
G1 X10.391 Y-2.375
G1 X11.236 Y-2.683
G1 X11.390 Y-2.260
G1 X11.813 Y-2.414
G1 X11.659 Y-2.836
G1 X12.504 Y-3.144
G1 X12.658 Y-2.721
G1 X12.236 Y-2.568
G1 X12.389 Y-2.145
G1 X12.812 Y-2.299
G1 X12.966 Y-1.876
G1 X12.121 Y-1.568
G1 X11.967 Y-1.991
G1 X11.544 Y-1.837
G1 X11.698 Y-1.414
G1 X12.006 Y-0.569
G1 X12.428 Y-0.723
G1 X12.274 Y-1.145
G1 X13.120 Y-1.453
G1 X13.274 Y-1.030
G1 X12.851 Y-0.877
G1 X13.005 Y-0.454
G1 X13.428 Y-0.608
G1 X13.582 Y-0.185
G1 X12.736 Y0.123
G1 X12.582 Y-0.300
G1 X12.159 Y-0.146
G1 X12.313 Y0.277
G1 X11.468 Y0.584
G1 X11.314 Y0.162
G1 X11.737 Y0.008
G1 X11.429 Y-0.838
G1 X11.006 Y-0.684
G1 X11.160 Y-0.261
G1 X10.737 Y-0.107
G1 X10.583 Y-0.530
G1 X10.161 Y-0.376
G1 X10.468 Y0.469
G1 X10.891 Y0.316
G1 X11.045 Y0.738
G1 X10.622 Y0.892
G1 X10.930 Y1.738
G1 X11.353 Y1.584
G1 X11.199 Y1.161
G1 X12.044 Y0.853
G1 X12.198 Y1.276
G1 X11.776 Y1.430
G1 X11.929 Y1.853
G1 X12.352 Y1.699
G1 X12.506 Y2.122
G1 X11.661 Y2.429
G1 X11.507 Y2.007
G1 X11.084 Y2.160
G1 X11.392 Y3.006
G1 X11.814 Y2.852
G1 X11.968 Y3.275
G1 X11.545 Y3.429
G1 X11.853 Y4.274
G1 X12.276 Y4.120
G1 X12.122 Y3.698
G1 X12.545 Y3.544
G1 X12.699 Y3.967
G1 X13.122 Y3.813
G1 X12.814 Y2.967
G1 X12.391 Y3.121
G1 X12.237 Y2.698
G1 X13.505 Y2.237
G1 X13.659 Y2.659
G1 X13.237 Y2.813
G1 X13.544 Y3.659
G1 X13.967 Y3.505
G1 X13.813 Y3.082
G1 X14.236 Y2.928
G1 X14.390 Y3.351
G1 X14.813 Y3.197
G1 X14.505 Y2.352
G1 X14.082 Y2.506
G1 X13.928 Y2.083
G1 X14.351 Y1.929
G1 X14.043 Y1.083
G1 X13.620 Y1.237
G1 X13.774 Y1.660
G1 X12.929 Y1.968
G1 X12.775 Y1.545
G1 X13.198 Y1.391
G1 X13.044 Y0.968
G1 X12.621 Y1.122
G1 X12.467 Y0.699
G1 X13.313 Y0.392
G1 X13.467 Y0.814
G1 X13.889 Y0.661
G1 X13.735 Y0.238
G1 X14.581 Y-0.070
G1 X14.735 Y0.353
G1 X14.312 Y0.507
G1 X14.620 Y1.352
G1 X15.043 Y1.198
G1 X14.889 Y0.776
G1 X15.311 Y0.622
G1 X15.465 Y1.045
G1 X15.888 Y0.891
G1 X15.580 Y0.045
G1 X15.158 Y0.199
G1 X15.004 Y-0.224
G1 X15.849 Y-0.532
G1 X16.003 Y-0.109
G1 X16.426 Y-0.263
G1 X16.272 Y-0.685
G1 X17.117 Y-0.993
G1 X17.271 Y-0.570
G1 X16.849 Y-0.416
G1 X17.002 Y0.006
G1 X17.425 Y-0.148
G1 X17.579 Y0.275
G1 X16.734 Y0.583
G1 X16.580 Y0.160
G1 X16.157 Y0.314
G1 X16.619 Y1.582
G1 X17.041 Y1.428
G1 X16.887 Y1.006
G1 X17.733 Y0.698
G1 X17.887 Y1.121
G1 X17.464 Y1.275
G1 X17.618 Y1.697
G1 X18.041 Y1.543
G1 X18.195 Y1.966
G1 X17.349 Y2.274
G1 X17.195 Y1.851
G1 X16.772 Y2.005
G1 X16.926 Y2.428
G1 X16.081 Y2.736
G1 X15.927 Y2.313
G1 X16.350 Y2.159
G1 X16.042 Y1.313
G1 X15.619 Y1.467
G1 X15.773 Y1.890
G1 X15.350 Y2.044
G1 X15.196 Y1.621
G1 X14.774 Y1.775
G1 X15.081 Y2.621
G1 X15.504 Y2.467
G1 X15.658 Y2.889
G1 X15.235 Y3.043
G1 X15.389 Y3.466
G1 X15.812 Y3.312
G1 X15.966 Y3.735
G1 X15.543 Y3.889
G1 X15.851 Y4.734
G1 X16.274 Y4.580
G1 X16.120 Y4.158
G1 X16.542 Y4.004
G1 X16.696 Y4.427
G1 X17.119 Y4.273
G1 X16.811 Y3.427
G1 X16.389 Y3.581
G1 X16.235 Y3.158
G1 X17.080 Y2.851
G1 X17.234 Y3.273
G1 X17.657 Y3.119
G1 X17.503 Y2.697
G1 X18.348 Y2.389
G1 X18.502 Y2.812
G1 X18.080 Y2.966
G1 X18.233 Y3.388
G1 X18.656 Y3.234
G1 X18.810 Y3.657
G1 X17.965 Y3.965
G1 X17.811 Y3.542
G1 X17.388 Y3.696
G1 X17.542 Y4.119
G1 X17.850 Y4.964
G1 X18.272 Y4.810
G1 X18.118 Y4.388
G1 X18.964 Y4.080
G1 X19.118 Y4.503
G1 X18.695 Y4.657
G1 X18.849 Y5.079
G1 X19.272 Y4.925
G1 X19.426 Y5.348
G1 X18.580 Y5.656
G1 X18.426 Y5.233
G1 X18.003 Y5.387
G1 X18.157 Y5.810
G1 X17.312 Y6.118
G1 X17.158 Y5.695
G1 X17.581 Y5.541
G1 X17.273 Y4.695
G1 X16.850 Y4.849
G1 X17.004 Y5.272
G1 X16.581 Y5.426
G1 X16.427 Y5.003
G1 X16.005 Y5.157
G1 X16.312 Y6.003
G1 X16.735 Y5.849
G1 X16.889 Y6.271
G1 X16.044 Y6.579
G1 X15.890 Y6.156
G1 X15.467 Y6.310
G1 X15.621 Y6.733
G1 X14.775 Y7.041
G1 X14.621 Y6.618
G1 X15.044 Y6.464
G1 X14.890 Y6.041
G1 X14.467 Y6.195
G1 X14.314 Y5.773
G1 X15.159 Y5.465
G1 X15.313 Y5.888
G1 X15.736 Y5.734
G1 X15.428 Y4.888
G1 X15.005 Y5.042
G1 X14.851 Y4.619
G1 X15.274 Y4.465
G1 X14.966 Y3.620
G1 X14.544 Y3.774
G1 X14.698 Y4.197
G1 X14.275 Y4.350
G1 X14.121 Y3.928
G1 X13.698 Y4.082
G1 X14.006 Y4.927
G1 X14.429 Y4.773
G1 X14.583 Y5.196
G1 X13.314 Y5.658
G1 X13.160 Y5.235
G1 X13.583 Y5.081
G1 X13.275 Y4.235
G1 X12.853 Y4.389
G1 X13.006 Y4.812
G1 X12.584 Y4.966
G1 X12.430 Y4.543
G1 X12.007 Y4.697
G1 X12.315 Y5.543
G1 X12.738 Y5.389
G1 X12.891 Y5.811
G1 X12.469 Y5.965
G1 X12.776 Y6.811
G1 X13.199 Y6.657
G1 X13.045 Y6.234
G1 X13.891 Y5.926
G1 X14.045 Y6.349
G1 X13.622 Y6.503
G1 X13.776 Y6.926
G1 X14.199 Y6.772
G1 X14.352 Y7.195
G1 X13.507 Y7.502
G1 X13.353 Y7.080
G1 X12.930 Y7.234
G1 X13.238 Y8.079
G1 X13.661 Y7.925
G1 X13.815 Y8.348
G1 X13.392 Y8.502
G1 X13.700 Y9.347
G1 X14.122 Y9.193
G1 X13.969 Y8.771
G1 X14.391 Y8.617
G1 X14.545 Y9.040
G1 X14.968 Y8.886
G1 X14.660 Y8.040
G1 X14.237 Y8.194
G1 X14.084 Y7.771
G1 X14.929 Y7.464
G1 X15.083 Y7.886
G1 X15.506 Y7.732
G1 X15.352 Y7.310
G1 X16.197 Y7.002
G1 X16.351 Y7.425
G1 X15.928 Y7.579
G1 X16.082 Y8.001
G1 X16.505 Y7.847
G1 X16.659 Y8.270
G1 X15.813 Y8.578
G1 X15.660 Y8.155
G1 X15.237 Y8.309
G1 X15.391 Y8.732
G1 X15.698 Y9.577
G1 X16.121 Y9.423
G1 X15.967 Y9.001
G1 X16.813 Y8.693
G1 X16.967 Y9.116
G1 X16.544 Y9.270
G1 X16.698 Y9.692
G1 X17.121 Y9.539
G1 X17.274 Y9.961
G1 X16.429 Y10.269
G1 X16.275 Y9.846
G1 X15.852 Y10.000
G1 X16.006 Y10.423
G1 X15.207 Y10.714
M700 P0.000000
G1 X15.104 Y10.574 F24000.000
M700 P0.157461
G1 X15.007 Y10.308 F1800.000
G1 X15.430 Y10.154
G1 X15.122 Y9.308
G1 X14.699 Y9.462
G1 X14.853 Y9.885
G1 X14.563 Y9.991
M700 P0.000000
G1 X14.361 Y9.849 F24000.000
M700 P0.157461
G1 X14.276 Y9.616 F1800.000
G1 X14.108 Y9.678
M700 P0.000000
G1 X12.713 Y9.268 F24000.000
M700 P0.157461
G1 X12.700 Y9.232 F1800.000
G1 X13.123 Y9.078
G1 X12.815 Y8.233
G1 X12.393 Y8.387
G1 X12.546 Y8.810
G1 X12.124 Y8.963
G1 X11.970 Y8.541
G1 X11.547 Y8.695
G1 X11.782 Y9.341
M700 P0.000000
G1 X11.349 Y9.466 F24000.000
M700 P0.157461
G1 X11.124 Y8.848 F1800.000
G1 X10.702 Y9.002
G1 X10.855 Y9.425
G1 X10.433 Y9.579
G1 X10.279 Y9.156
G1 X9.856 Y9.310
G1 X10.164 Y10.156
G1 X10.328 Y10.096
M700 P0.000000
G1 X9.737 Y10.790 F24000.000
M700 P0.157461
G1 X9.472 Y10.886 F1800.000
G1 X9.318 Y10.463
G1 X9.741 Y10.309
G1 X9.433 Y9.464
G1 X9.010 Y9.618
G1 X9.164 Y10.041
G1 X8.742 Y10.194
G1 X8.588 Y9.772
G1 X8.347 Y9.859
M700 P0.000000
G1 X8.289 Y9.402 F24000.000
M700 P0.157461
G1 X8.434 Y9.349 F1800.000
G1 X8.280 Y8.926
G1 X8.703 Y8.772
G1 X8.857 Y9.195
G1 X9.279 Y9.041
G1 X8.972 Y8.196
G1 X8.549 Y8.350
G1 X8.395 Y7.927
G1 X8.818 Y7.773
G1 X8.510 Y6.927
G1 X8.087 Y7.081
G1 X8.241 Y7.504
G1 X7.499 Y7.774
M700 P0.000000
G1 X7.318 Y7.599 F24000.000
M700 P0.157461
G1 X7.242 Y7.389 F1800.000
G1 X7.665 Y7.235
G1 X7.511 Y6.812
G1 X7.088 Y6.966
G1 X6.934 Y6.543
G1 X7.780 Y6.236
G1 X7.933 Y6.658
G1 X8.356 Y6.505
G1 X8.202 Y6.082
G1 X8.625 Y5.928
G1 X8.779 Y6.351
G1 X9.202 Y6.197
G1 X9.048 Y5.774
G1 X9.893 Y5.466
G1 X10.047 Y5.889
G1 X9.624 Y6.043
G1 X9.778 Y6.466
G1 X10.201 Y6.312
G1 X10.355 Y6.735
G1 X9.509 Y7.042
G1 X9.356 Y6.620
G1 X8.933 Y6.773
G1 X9.241 Y7.619
G1 X9.663 Y7.465
G1 X9.817 Y7.888
G1 X9.394 Y8.042
G1 X9.702 Y8.887
G1 X10.125 Y8.733
G1 X9.971 Y8.311
G1 X10.394 Y8.157
G1 X10.548 Y8.580
G1 X10.970 Y8.426
G1 X10.663 Y7.580
G1 X10.240 Y7.734
G1 X10.086 Y7.311
G1 X11.354 Y6.850
G1 X11.508 Y7.272
G1 X11.085 Y7.426
G1 X11.393 Y8.272
G1 X11.816 Y8.118
G1 X11.662 Y7.695
G1 X12.085 Y7.541
G1 X12.239 Y7.964
G1 X12.661 Y7.810
G1 X12.354 Y6.965
G1 X11.931 Y7.119
G1 X11.777 Y6.696
G1 X12.200 Y6.542
G1 X11.892 Y5.696
G1 X11.469 Y5.850
G1 X11.623 Y6.273
G1 X10.778 Y6.581
G1 X10.624 Y6.158
G1 X11.047 Y6.004
G1 X10.893 Y5.581
G1 X10.470 Y5.735
G1 X10.316 Y5.312
G1 X11.162 Y5.005
G1 X11.315 Y5.428
G1 X11.738 Y5.274
G1 X11.430 Y4.428
G1 X11.008 Y4.582
G1 X10.854 Y4.159
G1 X11.277 Y4.005
G1 X10.969 Y3.160
G1 X10.546 Y3.314
G1 X10.700 Y3.736
G1 X10.277 Y3.890
G1 X10.123 Y3.468
G1 X9.701 Y3.621
G1 X10.008 Y4.467
G1 X10.431 Y4.313
G1 X10.585 Y4.736
G1 X9.739 Y5.044
G1 X9.586 Y4.621
G1 X9.163 Y4.775
G1 X9.317 Y5.197
G1 X8.471 Y5.505
G1 X8.317 Y5.082
G1 X8.740 Y4.929
G1 X8.586 Y4.506
G1 X8.163 Y4.660
G1 X8.010 Y4.237
G1 X8.855 Y3.929
G1 X9.009 Y4.352
G1 X9.432 Y4.198
G1 X9.124 Y3.353
G1 X8.970 Y2.930
G1 X8.547 Y3.084
G1 X8.701 Y3.506
G1 X7.856 Y3.814
G1 X7.702 Y3.391
G1 X8.125 Y3.238
G1 X7.971 Y2.815
G1 X7.548 Y2.969
G1 X7.394 Y2.546
G1 X8.240 Y2.238
G1 X8.393 Y2.661
G1 X8.816 Y2.507
G1 X8.662 Y2.084
G1 X9.508 Y1.777
G1 X9.662 Y2.199
G1 X9.239 Y2.353
G1 X9.547 Y3.199
G1 X9.969 Y3.045
G1 X9.816 Y2.622
G1 X10.238 Y2.468
G1 X10.392 Y2.891
G1 X10.815 Y2.737
G1 X10.507 Y1.892
G1 X10.084 Y2.045
G1 X9.931 Y1.623
G1 X10.353 Y1.469
G1 X10.046 Y0.623
G1 X9.623 Y0.777
G1 X9.777 Y1.200
G1 X8.931 Y1.508
G1 X8.777 Y1.085
G1 X9.200 Y0.931
G1 X9.046 Y0.508
G1 X8.623 Y0.662
G1 X8.470 Y0.239
G1 X9.315 Y-0.068
G1 X9.469 Y0.354
G1 X9.892 Y0.201
G1 X9.584 Y-0.645
G1 X9.161 Y-0.491
G1 X9.007 Y-0.914
G1 X9.430 Y-1.068
G1 X9.122 Y-1.913
G1 X8.700 Y-1.759
G1 X8.854 Y-1.337
G1 X8.431 Y-1.183
G1 X8.277 Y-1.606
G1 X7.854 Y-1.452
G1 X8.162 Y-0.606
G1 X8.585 Y-0.760
G1 X8.739 Y-0.337
G1 X7.893 Y-0.029
G1 X7.470 Y0.124
G1 X7.316 Y-0.298
G1 X7.739 Y-0.452
G1 X7.431 Y-1.298
G1 X7.009 Y-1.144
G1 X7.162 Y-0.721
G1 X6.740 Y-0.567
G1 X6.586 Y-0.990
G1 X6.163 Y-0.836
G1 X6.471 Y0.009
G1 X6.894 Y-0.145
G1 X7.047 Y0.278
G1 X6.625 Y0.432
G1 X6.932 Y1.278
G1 X7.355 Y1.124
G1 X7.201 Y0.701
G1 X8.047 Y0.393
G1 X8.201 Y0.816
G1 X7.778 Y0.970
G1 X7.932 Y1.393
G1 X8.355 Y1.239
G1 X8.508 Y1.662
G1 X7.663 Y1.969
G1 X7.509 Y1.547
G1 X7.086 Y1.700
G1 X7.240 Y2.123
G1 X6.395 Y2.431
G1 X6.241 Y2.008
G1 X6.664 Y1.854
G1 X6.510 Y1.432
G1 X6.356 Y1.009
G1 X5.933 Y1.163
G1 X6.087 Y1.585
G1 X5.664 Y1.739
G1 X5.510 Y1.316
G1 X5.088 Y1.470
G1 X5.395 Y2.316
G1 X5.818 Y2.162
G1 X5.972 Y2.585
G1 X5.126 Y2.893
G1 X4.973 Y2.470
G1 X4.550 Y2.624
G1 X4.704 Y3.046
G1 X3.858 Y3.354
G1 X3.704 Y2.931
G1 X4.127 Y2.777
G1 X3.973 Y2.355
G1 X3.550 Y2.509
G1 X3.397 Y2.086
G1 X4.242 Y1.778
G1 X4.396 Y2.201
G1 X4.819 Y2.047
G1 X4.357 Y0.779
G1 X3.934 Y0.933
G1 X4.088 Y1.355
G1 X3.243 Y1.663
G1 X3.089 Y1.240
G1 X3.512 Y1.086
G1 X3.358 Y0.664
G1 X2.935 Y0.818
G1 X2.781 Y0.395
G1 X3.627 Y0.087
G1 X3.780 Y0.510
G1 X4.203 Y0.356
G1 X4.049 Y-0.067
G1 X4.895 Y-0.375
G1 X5.049 Y0.048
G1 X4.626 Y0.202
G1 X4.934 Y1.048
G1 X5.356 Y0.894
G1 X5.203 Y0.471
G1 X5.625 Y0.317
G1 X5.779 Y0.740
G1 X6.202 Y0.586
G1 X5.894 Y-0.260
G1 X5.471 Y-0.106
G1 X5.318 Y-0.528
G1 X5.740 Y-0.682
G1 X5.586 Y-1.105
G1 X5.164 Y-0.951
G1 X5.010 Y-1.374
G1 X5.433 Y-1.528
G1 X5.125 Y-2.373
G1 X4.702 Y-2.219
G1 X4.856 Y-1.797
G1 X4.433 Y-1.643
G1 X4.279 Y-2.066
G1 X3.857 Y-1.912
G1 X4.164 Y-1.066
G1 X4.587 Y-1.220
G1 X4.741 Y-0.797
G1 X3.895 Y-0.490
G1 X3.742 Y-0.912
G1 X3.319 Y-0.758
G1 X3.473 Y-0.336
G1 X2.627 Y-0.028
G1 X2.473 Y-0.451
G1 X2.896 Y-0.605
G1 X2.742 Y-1.027
G1 X2.319 Y-0.873
G1 X2.166 Y-1.296
G1 X3.011 Y-1.604
G1 X3.165 Y-1.181
G1 X3.588 Y-1.335
G1 X3.126 Y-2.603
G1 X2.703 Y-2.449
G1 X2.857 Y-2.027
G1 X2.012 Y-1.719
G1 X1.858 Y-2.142
G1 X2.281 Y-2.296
G1 X2.127 Y-2.718
G1 X1.704 Y-2.564
G1 X1.550 Y-2.987
G1 X2.396 Y-3.295
G1 X2.549 Y-2.872
G1 X2.972 Y-3.026
G1 X2.818 Y-3.449
G1 X3.664 Y-3.757
G1 X3.818 Y-3.334
G1 X3.395 Y-3.180
G1 X3.703 Y-2.334
G1 X4.125 Y-2.488
G1 X3.972 Y-2.911
G1 X4.394 Y-3.065
G1 X4.548 Y-2.642
G1 X4.971 Y-2.796
G1 X4.663 Y-3.642
G1 X4.240 Y-3.488
G1 X4.087 Y-3.910
G1 X4.932 Y-4.218
G1 X5.086 Y-3.795
G1 X5.509 Y-3.949
G1 X5.355 Y-4.372
G1 X6.200 Y-4.680
G1 X6.354 Y-4.257
G1 X5.932 Y-4.103
G1 X6.085 Y-3.680
G1 X6.508 Y-3.834
G1 X6.662 Y-3.412
G1 X5.817 Y-3.104
G1 X5.663 Y-3.527
G1 X5.240 Y-3.373
G1 X5.548 Y-2.527
G1 X5.970 Y-2.681
G1 X6.124 Y-2.258
G1 X5.701 Y-2.104
G1 X6.009 Y-1.259
G1 X6.432 Y-1.413
G1 X6.278 Y-1.836
G1 X6.701 Y-1.989
G1 X6.855 Y-1.567
G1 X7.278 Y-1.721
G1 X6.970 Y-2.566
G1 X6.547 Y-2.412
G1 X6.393 Y-2.835
G1 X7.661 Y-3.297
G1 X7.815 Y-2.874
G1 X7.393 Y-2.720
G1 X7.700 Y-1.874
G1 X8.123 Y-2.028
G1 X7.969 Y-2.451
G1 X8.392 Y-2.605
G1 X8.546 Y-2.182
G1 X8.969 Y-2.336
G1 X8.661 Y-3.182
G1 X8.238 Y-3.028
G1 X8.084 Y-3.450
G1 X8.507 Y-3.604
G1 X8.199 Y-4.450
G1 X7.776 Y-4.296
G1 X7.930 Y-3.873
G1 X7.085 Y-3.565
G1 X6.931 Y-3.988
G1 X7.354 Y-4.142
G1 X7.200 Y-4.565
G1 X6.777 Y-4.411
G1 X6.623 Y-4.834
G1 X7.469 Y-5.141
G1 X7.623 Y-4.719
G1 X8.045 Y-4.873
G1 X7.584 Y-6.141
G1 X7.161 Y-5.987
G1 X7.315 Y-5.564
G1 X6.469 Y-5.256
G1 X6.315 Y-5.679
G1 X6.738 Y-5.833
G1 X6.584 Y-6.256
G1 X6.162 Y-6.102
G1 X6.008 Y-6.525
G1 X6.853 Y-6.832
G1 X7.007 Y-6.410
G1 X7.430 Y-6.564
G1 X7.122 Y-7.409
G1 X7.091 Y-7.398
M700 P0.000000
G1 X5.070 Y-6.662 F24000.000
M700 P0.157461
G1 X5.008 Y-6.640 F1800.000
G1 X5.000 Y-6.662
M700 P0.000000
G1 X4.509 Y-6.697 F24000.000
M700 P0.157461
G1 X4.586 Y-6.486 F1800.000
G1 X4.163 Y-6.332
G1 X4.471 Y-5.486
G1 X4.893 Y-5.640
G1 X4.739 Y-6.063
G1 X5.585 Y-6.371
G1 X5.739 Y-5.948
G1 X5.316 Y-5.794
G1 X5.470 Y-5.371
G1 X5.893 Y-5.525
G1 X6.047 Y-5.103
G1 X5.201 Y-4.795
G1 X5.047 Y-5.218
G1 X4.624 Y-5.064
G1 X4.778 Y-4.641
G1 X3.933 Y-4.333
G1 X3.779 Y-4.756
G1 X4.202 Y-4.910
G1 X3.894 Y-5.755
G1 X3.471 Y-5.601
G1 X3.625 Y-5.179
G1 X3.202 Y-5.025
G1 X3.048 Y-5.448
G1 X2.626 Y-5.294
G1 X2.933 Y-4.448
G1 X3.356 Y-4.602
G1 X3.510 Y-4.179
G1 X2.664 Y-3.872
G1 X2.511 Y-4.294
G1 X2.088 Y-4.141
G1 X2.242 Y-3.718
G1 X1.396 Y-3.410
G1 X1.242 Y-3.833
G1 X1.665 Y-3.987
G1 X1.511 Y-4.409
G1 X1.088 Y-4.256
G1 X0.935 Y-4.678
G1 X1.780 Y-4.986
G1 X1.934 Y-4.563
G1 X2.357 Y-4.717
G1 X1.895 Y-5.985
G1 X1.472 Y-5.832
G1 X1.626 Y-5.409
G1 X0.781 Y-5.101
G1 X0.627 Y-5.524
G1 X1.050 Y-5.678
G1 X0.896 Y-6.100
G1 X0.473 Y-5.947
G1 X0.319 Y-6.369
G1 X1.165 Y-6.677
G1 X1.318 Y-6.254
G1 X1.741 Y-6.408
G1 X1.587 Y-6.831
G1 X2.433 Y-7.139
G1 X2.587 Y-6.716
G1 X2.164 Y-6.562
G1 X2.472 Y-5.717
G1 X2.895 Y-5.870
G1 X2.741 Y-6.293
G1 X3.163 Y-6.447
G1 X3.317 Y-6.024
G1 X3.740 Y-6.178
G1 X3.432 Y-7.024
G1 X3.010 Y-6.870
G1 X2.856 Y-7.293
G1 X2.982 Y-7.339
M700 P0.000000
G1 X3.986 Y-6.818 F24000.000
M700 P0.157461
G1 X4.009 Y-6.755 F1800.000
G1 X4.086 Y-6.783
M700 P0.000000
G1 X2.044 Y-8.434 F24000.000
M700 P0.157461
G1 X1.971 Y-8.407 F1800.000
G1 X1.817 Y-8.830
G1 X1.395 Y-8.676
G1 X1.702 Y-7.830
G1 X2.125 Y-7.984
G1 X2.279 Y-7.561
G1 X1.434 Y-7.254
G1 X1.280 Y-7.676
G1 X0.857 Y-7.523
G1 X1.011 Y-7.100
G1 X0.165 Y-6.792
G1 X0.011 Y-7.215
G1 X0.434 Y-7.369
G1 X0.280 Y-7.791
G1 X-0.143 Y-7.638
G1 X-0.296 Y-8.060
G1 X0.549 Y-8.368
G1 X0.703 Y-7.945
G1 X1.126 Y-8.099
G1 X0.664 Y-9.367
G1 X0.241 Y-9.214
G1 X0.395 Y-8.791
G1 X-0.450 Y-8.483
G1 X-0.604 Y-8.906
G1 X-0.181 Y-9.060
G1 X-0.335 Y-9.482
G1 X-0.758 Y-9.329
G1 X-0.912 Y-9.751
G1 X-0.066 Y-10.059
G1 X0.088 Y-9.636
G1 X0.510 Y-9.790
G1 X0.356 Y-10.213
G1 X1.202 Y-10.521
G1 X1.356 Y-10.098
G1 X0.933 Y-9.944
G1 X1.241 Y-9.099
G1 X1.664 Y-9.252
G1 X1.510 Y-9.675
G1 X1.670 Y-9.734
M700 P0.000000
G1 X1.697 Y-10.477 F24000.000
M700 P0.157461
G1 X1.625 Y-10.675 F1800.000
G1 X1.728 Y-10.712
M700 P0.000000
G1 X1.892 Y-11.251 F24000.000
M700 P0.157461
G1 X1.048 Y-10.943 F1800.000
G1 X0.894 Y-11.366
G1 X0.471 Y-11.212
G1 X0.625 Y-10.790
G1 X-0.220 Y-10.482
G1 X-0.374 Y-10.905
G1 X0.049 Y-11.058
G1 X-0.259 Y-11.904
G1 X-0.682 Y-11.750
G1 X-0.528 Y-11.327
G1 X-0.951 Y-11.174
G1 X-1.105 Y-11.596
G1 X-1.527 Y-11.442
G1 X-1.220 Y-10.597
G1 X-0.797 Y-10.751
G1 X-0.643 Y-10.328
G1 X-1.911 Y-9.866
G1 X-2.065 Y-10.289
G1 X-1.642 Y-10.443
G1 X-1.950 Y-11.289
G1 X-2.373 Y-11.135
G1 X-2.219 Y-10.712
G1 X-2.642 Y-10.558
G1 X-2.796 Y-10.981
G1 X-3.218 Y-10.827
G1 X-3.065 Y-10.404
G1 X-2.911 Y-9.981
G1 X-2.488 Y-10.135
G1 X-2.334 Y-9.713
G1 X-3.180 Y-9.405
G1 X-3.333 Y-9.828
G1 X-3.756 Y-9.674
G1 X-3.602 Y-9.251
G1 X-4.448 Y-8.943
G1 X-4.602 Y-9.366
G1 X-4.179 Y-9.520
G1 X-4.333 Y-9.943
G1 X-4.756 Y-9.789
G1 X-4.909 Y-10.211
G1 X-4.064 Y-10.519
G1 X-3.910 Y-10.096
G1 X-3.487 Y-10.250
G1 X-3.641 Y-10.673
G1 X-3.949 Y-11.519
G1 X-4.372 Y-11.365
G1 X-4.218 Y-10.942
G1 X-5.063 Y-10.634
G1 X-5.217 Y-11.057
G1 X-4.794 Y-11.211
G1 X-4.948 Y-11.634
G1 X-5.371 Y-11.480
G1 X-5.525 Y-11.902
G1 X-4.679 Y-12.210
G1 X-4.526 Y-11.787
G1 X-4.103 Y-11.941
G1 X-4.257 Y-12.364
G1 X-3.411 Y-12.672
G1 X-3.257 Y-12.249
G1 X-3.680 Y-12.095
G1 X-3.372 Y-11.250
G1 X-2.949 Y-11.404
G1 X-3.103 Y-11.826
G1 X-2.681 Y-11.980
G1 X-2.527 Y-11.557
G1 X-2.104 Y-11.711
G1 X-2.412 Y-12.557
G1 X-2.834 Y-12.403
G1 X-2.988 Y-12.826
G1 X-2.566 Y-12.980
G1 X-2.739 Y-13.455
M700 P0.000000
G1 X-3.218 Y-13.455 F24000.000
M700 P0.157461
G1 X-3.142 Y-13.248 F1800.000
G1 X-3.988 Y-12.941
G1 X-4.142 Y-13.363
G1 X-3.889 Y-13.455
M700 P0.000000
G1 X-5.133 Y-13.455 F24000.000
M700 P0.157461
G1 X-4.987 Y-13.056 F1800.000
G1 X-4.564 Y-13.210
G1 X-4.410 Y-12.787
G1 X-5.256 Y-12.479
G1 X-5.410 Y-12.902
G1 X-5.833 Y-12.748
G1 X-5.679 Y-12.325
G1 X-6.102 Y-12.171
G1 X-6.255 Y-12.594
G1 X-6.678 Y-12.440
G1 X-6.524 Y-12.017
G1 X-7.370 Y-11.710
G1 X-7.524 Y-12.132
G1 X-7.101 Y-12.286
G1 X-7.255 Y-12.709
G1 X-7.678 Y-12.555
G1 X-7.831 Y-12.978
G1 X-6.986 Y-13.286
G1 X-6.832 Y-12.863
G1 X-6.409 Y-13.017
G1 X-6.569 Y-13.455
M700 P0.000000
G1 X-6.090 Y-13.455 F24000.000
M700 P0.157461
G1 X-5.987 Y-13.171 F1800.000
G1 X-5.564 Y-13.325
G1 X-5.611 Y-13.455
M700 P0.000000
G1 X-7.835 Y-13.455 F24000.000
M700 P0.157461
G1 X-8.831 Y-13.093 F1800.000
G1 X-8.963 Y-13.455
M700 P0.000000
G1 X-9.920 Y-13.455 F24000.000
M700 P0.157461
G1 X-9.830 Y-13.208 F1800.000
G1 X-9.407 Y-13.362
G1 X-9.254 Y-12.939
G1 X-9.676 Y-12.785
G1 X-9.369 Y-11.940
G1 X-8.946 Y-12.094
G1 X-9.100 Y-12.516
G1 X-8.254 Y-12.824
G1 X-8.100 Y-12.401
G1 X-8.523 Y-12.248
G1 X-8.369 Y-11.825
G1 X-7.946 Y-11.979
G1 X-7.793 Y-11.556
G1 X-8.638 Y-11.248
G1 X-8.792 Y-11.671
G1 X-9.215 Y-11.517
G1 X-8.907 Y-10.671
G1 X-8.484 Y-10.825
G1 X-8.330 Y-10.403
G1 X-8.753 Y-10.249
G1 X-8.445 Y-9.403
G1 X-8.023 Y-9.557
G1 X-8.176 Y-9.980
G1 X-7.754 Y-10.134
G1 X-7.600 Y-9.711
G1 X-7.177 Y-9.865
G1 X-7.485 Y-10.710
G1 X-7.908 Y-10.556
G1 X-8.061 Y-10.979
G1 X-7.216 Y-11.287
G1 X-7.062 Y-10.864
G1 X-6.639 Y-11.018
G1 X-6.793 Y-11.441
G1 X-5.948 Y-11.749
G1 X-5.794 Y-11.326
G1 X-6.217 Y-11.172
G1 X-6.063 Y-10.749
G1 X-5.640 Y-10.903
G1 X-5.486 Y-10.480
G1 X-6.332 Y-10.173
G1 X-6.485 Y-10.595
G1 X-6.908 Y-10.441
G1 X-6.447 Y-9.173
G1 X-6.024 Y-9.327
G1 X-6.178 Y-9.750
G1 X-5.332 Y-10.058
G1 X-5.178 Y-9.635
G1 X-5.601 Y-9.481
G1 X-5.447 Y-9.058
G1 X-5.024 Y-9.212
G1 X-4.871 Y-8.789
G1 X-5.716 Y-8.482
G1 X-5.870 Y-8.904
G1 X-6.293 Y-8.750
G1 X-6.139 Y-8.328
G1 X-6.984 Y-8.020
G1 X-7.138 Y-8.443
G1 X-6.715 Y-8.597
G1 X-7.023 Y-9.442
G1 X-7.446 Y-9.288
G1 X-7.292 Y-8.865
G1 X-7.715 Y-8.712
G1 X-7.869 Y-9.134
G1 X-8.291 Y-8.980
G1 X-7.984 Y-8.135
G1 X-7.561 Y-8.289
G1 X-7.407 Y-7.866
G1 X-7.830 Y-7.712
G1 X-7.522 Y-6.867
G1 X-7.099 Y-7.021
G1 X-7.253 Y-7.443
G1 X-6.408 Y-7.751
G1 X-6.254 Y-7.328
G1 X-6.677 Y-7.174
G1 X-6.523 Y-6.752
G1 X-6.100 Y-6.906
G1 X-5.946 Y-6.483
G1 X-6.792 Y-6.175
G1 X-6.945 Y-6.598
G1 X-7.368 Y-6.444
G1 X-7.061 Y-5.598
G1 X-6.638 Y-5.752
G1 X-6.484 Y-5.330
G1 X-6.907 Y-5.176
G1 X-6.599 Y-4.330
G1 X-6.176 Y-4.484
G1 X-6.330 Y-4.907
G1 X-5.907 Y-5.061
G1 X-5.753 Y-4.638
G1 X-5.331 Y-4.792
G1 X-5.638 Y-5.637
G1 X-6.061 Y-5.483
G1 X-6.215 Y-5.906
G1 X-4.947 Y-6.368
G1 X-4.793 Y-5.945
G1 X-5.216 Y-5.791
G1 X-4.908 Y-4.946
G1 X-4.485 Y-5.099
G1 X-4.639 Y-5.522
G1 X-4.216 Y-5.676
G1 X-4.062 Y-5.253
G1 X-3.640 Y-5.407
G1 X-3.947 Y-6.253
G1 X-4.370 Y-6.099
G1 X-4.524 Y-6.522
G1 X-4.101 Y-6.675
G1 X-4.409 Y-7.521
G1 X-4.832 Y-7.367
G1 X-4.678 Y-6.944
G1 X-5.523 Y-6.637
G1 X-5.677 Y-7.059
G1 X-5.254 Y-7.213
G1 X-5.408 Y-7.636
G1 X-5.831 Y-7.482
G1 X-5.985 Y-7.905
G1 X-5.139 Y-8.213
G1 X-4.986 Y-7.790
G1 X-4.563 Y-7.944
G1 X-4.717 Y-8.367
G1 X-3.871 Y-8.674
G1 X-3.717 Y-8.252
G1 X-4.140 Y-8.098
G1 X-3.832 Y-7.252
G1 X-3.410 Y-7.406
G1 X-3.563 Y-7.829
G1 X-3.141 Y-7.983
G1 X-2.987 Y-7.560
G1 X-2.564 Y-7.714
G1 X-2.872 Y-8.559
G1 X-3.295 Y-8.405
G1 X-3.448 Y-8.828
G1 X-2.603 Y-9.136
G1 X-2.449 Y-8.713
G1 X-2.026 Y-8.867
G1 X-2.180 Y-9.290
G1 X-1.335 Y-9.597
G1 X-1.181 Y-9.175
G1 X-1.604 Y-9.021
G1 X-1.450 Y-8.598
G1 X-1.027 Y-8.752
G1 X-0.873 Y-8.329
G1 X-1.719 Y-8.021
G1 X-1.872 Y-8.444
G1 X-2.295 Y-8.290
G1 X-1.834 Y-7.022
G1 X-1.411 Y-7.176
G1 X-1.565 Y-7.599
G1 X-0.719 Y-7.906
G1 X-0.565 Y-7.484
G1 X-0.988 Y-7.330
G1 X-0.834 Y-6.907
G1 X-0.411 Y-7.061
G1 X-0.258 Y-6.638
G1 X-1.103 Y-6.330
G1 X-1.257 Y-6.753
G1 X-1.680 Y-6.599
G1 X-1.526 Y-6.177
G1 X-2.371 Y-5.869
G1 X-2.525 Y-6.292
G1 X-2.102 Y-6.445
G1 X-2.410 Y-7.291
G1 X-2.833 Y-7.137
G1 X-2.679 Y-6.714
G1 X-3.102 Y-6.560
G1 X-3.256 Y-6.983
G1 X-3.678 Y-6.829
G1 X-3.525 Y-6.407
G1 X-3.371 Y-5.984
G1 X-2.948 Y-6.138
G1 X-2.794 Y-5.715
G1 X-3.217 Y-5.561
G1 X-3.063 Y-5.138
G1 X-2.640 Y-5.292
G1 X-2.486 Y-4.869
G1 X-2.909 Y-4.716
G1 X-2.601 Y-3.870
G1 X-2.179 Y-4.024
G1 X-2.332 Y-4.447
G1 X-1.910 Y-4.601
G1 X-1.756 Y-4.178
G1 X-1.333 Y-4.332
G1 X-1.641 Y-5.177
G1 X-2.064 Y-5.023
G1 X-2.217 Y-5.446
G1 X-1.372 Y-5.754
G1 X-1.218 Y-5.331
G1 X-0.795 Y-5.485
G1 X-0.949 Y-5.908
G1 X-0.104 Y-6.215
G1 X0.050 Y-5.793
G1 X-0.373 Y-5.639
G1 X-0.219 Y-5.216
G1 X0.204 Y-5.370
G1 X0.358 Y-4.947
G1 X-0.488 Y-4.639
G1 X-0.641 Y-5.062
G1 X-1.064 Y-4.908
G1 X-0.603 Y-3.640
G1 X-0.180 Y-3.794
G1 X-0.334 Y-4.217
G1 X0.512 Y-4.524
G1 X0.666 Y-4.102
G1 X0.243 Y-3.948
G1 X0.397 Y-3.525
G1 X0.820 Y-3.679
G1 X0.973 Y-3.256
G1 X0.128 Y-2.948
G1 X-0.026 Y-3.371
G1 X-0.449 Y-3.217
G1 X-0.295 Y-2.795
G1 X-1.140 Y-2.487
G1 X-1.294 Y-2.910
G1 X-0.871 Y-3.063
G1 X-1.179 Y-3.909
G1 X-1.602 Y-3.755
G1 X-1.448 Y-3.332
G1 X-1.871 Y-3.178
G1 X-2.025 Y-3.601
G1 X-2.447 Y-3.447
G1 X-2.140 Y-2.602
G1 X-1.717 Y-2.756
G1 X-1.563 Y-2.333
G1 X-2.409 Y-2.025
G1 X-2.562 Y-2.448
G1 X-2.985 Y-2.294
G1 X-2.831 Y-1.871
G1 X-3.677 Y-1.564
G1 X-3.831 Y-1.986
G1 X-3.408 Y-2.140
G1 X-3.562 Y-2.563
G1 X-3.985 Y-2.409
G1 X-4.139 Y-2.832
G1 X-3.293 Y-3.140
G1 X-3.139 Y-2.717
G1 X-2.716 Y-2.871
G1 X-3.024 Y-3.716
G1 X-3.447 Y-3.562
G1 X-3.601 Y-3.985
G1 X-3.178 Y-4.139
G1 X-3.486 Y-4.984
G1 X-3.908 Y-4.831
G1 X-3.755 Y-4.408
G1 X-4.177 Y-4.254
G1 X-4.331 Y-4.677
G1 X-4.754 Y-4.523
G1 X-4.446 Y-3.677
G1 X-4.023 Y-3.831
G1 X-3.870 Y-3.408
G1 X-5.138 Y-2.947
G1 X-5.292 Y-3.370
G1 X-4.869 Y-3.523
G1 X-5.177 Y-4.369
G1 X-5.600 Y-4.215
G1 X-5.446 Y-3.792
G1 X-5.868 Y-3.638
G1 X-6.022 Y-4.061
G1 X-6.445 Y-3.907
G1 X-6.137 Y-3.062
G1 X-5.715 Y-3.216
G1 X-5.561 Y-2.793
G1 X-5.983 Y-2.639
G1 X-5.676 Y-1.794
G1 X-5.253 Y-1.947
G1 X-5.407 Y-2.370
G1 X-4.561 Y-2.678
G1 X-4.407 Y-2.255
G1 X-4.830 Y-2.101
G1 X-4.676 Y-1.679
G1 X-4.254 Y-1.832
G1 X-4.100 Y-1.410
G1 X-4.945 Y-1.102
G1 X-5.099 Y-1.525
G1 X-5.522 Y-1.371
G1 X-5.368 Y-0.948
G1 X-6.213 Y-0.640
G1 X-6.367 Y-1.063
G1 X-5.945 Y-1.217
G1 X-6.252 Y-2.062
G1 X-6.675 Y-1.909
G1 X-6.521 Y-1.486
G1 X-6.944 Y-1.332
G1 X-7.098 Y-1.755
G1 X-7.521 Y-1.601
G1 X-7.213 Y-0.755
G1 X-6.790 Y-0.909
G1 X-6.636 Y-0.486
G1 X-7.482 Y-0.179
G1 X-7.636 Y-0.601
G1 X-8.058 Y-0.448
G1 X-7.904 Y-0.025
G1 X-8.750 Y0.283
G1 X-8.904 Y-0.140
G1 X-8.481 Y-0.294
G1 X-8.635 Y-0.716
G1 X-9.058 Y-0.563
G1 X-9.212 Y-0.985
G1 X-8.366 Y-1.293
G1 X-8.212 Y-0.870
G1 X-7.789 Y-1.024
G1 X-8.251 Y-2.292
G1 X-8.674 Y-2.139
G1 X-8.520 Y-1.716
G1 X-9.365 Y-1.408
G1 X-9.519 Y-1.831
G1 X-9.097 Y-1.985
G1 X-9.250 Y-2.408
G1 X-9.673 Y-2.254
G1 X-9.827 Y-2.676
G1 X-8.982 Y-2.984
G1 X-8.828 Y-2.561
G1 X-8.405 Y-2.715
G1 X-8.559 Y-3.138
G1 X-7.713 Y-3.446
G1 X-7.559 Y-3.023
G1 X-7.982 Y-2.869
G1 X-7.674 Y-2.024
G1 X-7.252 Y-2.177
G1 X-7.406 Y-2.600
G1 X-6.983 Y-2.754
G1 X-6.829 Y-2.331
G1 X-6.406 Y-2.485
G1 X-6.714 Y-3.331
G1 X-7.137 Y-3.177
G1 X-7.291 Y-3.600
G1 X-6.868 Y-3.753
G1 X-7.176 Y-4.599
G1 X-7.598 Y-4.445
G1 X-7.444 Y-4.022
G1 X-8.290 Y-3.715
G1 X-8.444 Y-4.137
G1 X-8.021 Y-4.291
G1 X-8.175 Y-4.714
G1 X-8.598 Y-4.560
G1 X-8.752 Y-4.983
G1 X-7.906 Y-5.291
G1 X-7.752 Y-4.868
G1 X-7.329 Y-5.022
G1 X-7.637 Y-5.867
G1 X-8.060 Y-5.713
G1 X-8.214 Y-6.136
G1 X-7.791 Y-6.290
G1 X-8.099 Y-7.136
G1 X-8.522 Y-6.982
G1 X-8.368 Y-6.559
G1 X-8.790 Y-6.405
G1 X-8.944 Y-6.828
G1 X-9.367 Y-6.674
G1 X-9.059 Y-5.828
G1 X-8.637 Y-5.982
G1 X-8.483 Y-5.560
G1 X-9.751 Y-5.098
G1 X-9.905 Y-5.521
G1 X-9.482 Y-5.675
G1 X-9.790 Y-6.520
G1 X-10.213 Y-6.366
G1 X-10.059 Y-5.943
G1 X-10.481 Y-5.790
G1 X-10.635 Y-6.212
G1 X-11.058 Y-6.058
G1 X-10.750 Y-5.213
G1 X-10.328 Y-5.367
G1 X-10.174 Y-4.944
G1 X-10.596 Y-4.790
G1 X-10.289 Y-3.945
G1 X-9.866 Y-4.099
G1 X-10.020 Y-4.521
G1 X-9.174 Y-4.829
G1 X-9.020 Y-4.406
G1 X-9.443 Y-4.252
G1 X-9.289 Y-3.830
G1 X-8.867 Y-3.984
G1 X-8.713 Y-3.561
G1 X-9.135 Y-3.407
G1 X-9.558 Y-3.253
G1 X-9.712 Y-3.676
G1 X-10.135 Y-3.522
G1 X-9.981 Y-3.099
G1 X-10.404 Y-2.945
G1 X-10.558 Y-3.368
G1 X-10.980 Y-3.214
G1 X-10.826 Y-2.791
G1 X-11.672 Y-2.484
G1 X-11.826 Y-2.906
G1 X-11.403 Y-3.060
G1 X-11.557 Y-3.483
G1 X-11.980 Y-3.329
G1 X-12.134 Y-3.752
G1 X-11.288 Y-4.060
G1 X-11.134 Y-3.637
G1 X-10.711 Y-3.791
G1 X-11.019 Y-4.636
G1 X-11.442 Y-4.482
G1 X-11.596 Y-4.905
G1 X-11.173 Y-5.059
G1 X-11.481 Y-5.905
G1 X-11.904 Y-5.751
G1 X-11.750 Y-5.328
G1 X-12.172 Y-5.174
G1 X-12.326 Y-5.597
G1 X-12.749 Y-5.443
G1 X-12.441 Y-4.597
G1 X-12.019 Y-4.751
G1 X-11.865 Y-4.329
G1 X-12.710 Y-4.021
G1 X-13.133 Y-3.867
G1 X-13.287 Y-4.290
G1 X-12.864 Y-4.444
G1 X-13.172 Y-5.289
G1 X-13.595 Y-5.135
G1 X-13.441 Y-4.712
G1 X-13.863 Y-4.559
G1 X-14.017 Y-4.981
G1 X-14.440 Y-4.827
G1 X-14.132 Y-3.982
G1 X-13.710 Y-4.136
G1 X-13.556 Y-3.713
G1 X-13.979 Y-3.559
G1 X-13.671 Y-2.714
G1 X-13.248 Y-2.868
G1 X-13.402 Y-3.290
G1 X-12.556 Y-3.598
G1 X-12.402 Y-3.175
G1 X-12.825 Y-3.021
G1 X-12.671 Y-2.599
G1 X-12.249 Y-2.753
G1 X-12.095 Y-2.330
G1 X-12.940 Y-2.022
G1 X-13.094 Y-2.445
G1 X-13.517 Y-2.291
G1 X-13.209 Y-1.445
G1 X-12.786 Y-1.599
G1 X-12.633 Y-1.177
G1 X-13.055 Y-1.023
G1 X-12.748 Y-0.177
G1 X-12.325 Y-0.331
G1 X-12.479 Y-0.754
G1 X-12.056 Y-0.908
G1 X-11.902 Y-0.485
G1 X-11.479 Y-0.639
G1 X-11.787 Y-1.484
G1 X-12.210 Y-1.330
G1 X-12.364 Y-1.753
G1 X-11.518 Y-2.061
G1 X-11.364 Y-1.638
G1 X-10.941 Y-1.792
G1 X-11.095 Y-2.215
G1 X-10.250 Y-2.523
G1 X-10.096 Y-2.100
G1 X-10.519 Y-1.946
G1 X-10.365 Y-1.523
G1 X-9.942 Y-1.677
G1 X-9.788 Y-1.254
G1 X-10.634 Y-0.947
G1 X-10.788 Y-1.369
G1 X-11.210 Y-1.215
G1 X-10.749 Y0.053
G1 X-10.326 Y-0.101
G1 X-10.480 Y-0.524
G1 X-9.634 Y-0.831
G1 X-9.480 Y-0.409
G1 X-9.903 Y-0.255
G1 X-9.749 Y0.168
G1 X-9.327 Y0.014
G1 X-9.173 Y0.437
G1 X-10.018 Y0.745
G1 X-10.172 Y0.322
G1 X-10.595 Y0.476
G1 X-10.441 Y0.898
G1 X-11.287 Y1.206
G1 X-11.440 Y0.783
G1 X-11.018 Y0.630
G1 X-11.325 Y-0.216
G1 X-11.748 Y-0.062
G1 X-11.594 Y0.361
G1 X-12.017 Y0.514
G1 X-12.171 Y0.092
G1 X-12.594 Y0.246
G1 X-12.286 Y1.091
G1 X-11.863 Y0.937
G1 X-11.709 Y1.360
G1 X-12.555 Y1.668
G1 X-12.709 Y1.245
G1 X-13.131 Y1.399
G1 X-12.978 Y1.822
G1 X-13.823 Y2.129
G1 X-13.977 Y1.707
G1 X-13.554 Y1.553
G1 X-13.708 Y1.130
G1 X-14.131 Y1.284
G1 X-14.285 Y0.861
G1 X-13.439 Y0.553
G1 X-13.285 Y0.976
G1 X-12.863 Y0.822
G1 X-13.170 Y-0.023
G1 X-13.593 Y0.131
G1 X-13.747 Y-0.292
G1 X-13.324 Y-0.446
G1 X-13.632 Y-1.292
G1 X-14.055 Y-1.138
G1 X-13.901 Y-0.715
G1 X-14.324 Y-0.561
G1 X-14.477 Y-0.984
G1 X-14.900 Y-0.830
G1 X-14.592 Y0.016
G1 X-14.170 Y-0.138
G1 X-14.016 Y0.284
G1 X-15.284 Y0.746
G1 X-15.438 Y0.323
G1 X-15.015 Y0.169
G1 X-15.323 Y-0.676
G1 X-15.746 Y-0.522
G1 X-15.592 Y-0.099
G1 X-16.015 Y0.054
G1 X-16.168 Y-0.368
G1 X-16.591 Y-0.214
G1 X-16.283 Y0.631
G1 X-15.861 Y0.477
G1 X-15.707 Y0.900
G1 X-16.130 Y1.054
G1 X-15.822 Y1.899
G1 X-15.399 Y1.745
G1 X-15.553 Y1.323
G1 X-14.707 Y1.015
G1 X-14.554 Y1.438
G1 X-14.976 Y1.592
G1 X-14.822 Y2.014
G1 X-14.400 Y1.860
G1 X-14.246 Y2.283
G1 X-15.091 Y2.591
G1 X-15.245 Y2.168
G1 X-15.668 Y2.322
G1 X-15.514 Y2.745
G1 X-16.360 Y3.053
G1 X-16.513 Y2.630
G1 X-16.091 Y2.476
G1 X-16.398 Y1.630
G1 X-16.821 Y1.784
G1 X-16.667 Y2.207
G1 X-17.090 Y2.361
G1 X-17.244 Y1.938
G1 X-17.667 Y2.092
G1 X-17.359 Y2.938
G1 X-16.936 Y2.784
G1 X-16.782 Y3.206
G1 X-17.628 Y3.514
G1 X-17.782 Y3.091
G1 X-18.205 Y3.245
G1 X-18.051 Y3.668
G1 X-18.896 Y3.976
G1 X-19.050 Y3.553
G1 X-18.627 Y3.399
G1 X-18.781 Y2.976
G1 X-19.204 Y3.130
G1 X-19.358 Y2.708
G1 X-18.512 Y2.400
G1 X-18.358 Y2.823
G1 X-17.936 Y2.669
G1 X-18.397 Y1.400
G1 X-18.820 Y1.554
G1 X-18.666 Y1.977
G1 X-19.512 Y2.285
G1 X-19.666 Y1.862
G1 X-19.243 Y1.708
G1 X-19.397 Y1.285
G1 X-19.819 Y1.439
G1 X-19.973 Y1.017
G1 X-19.128 Y0.709
G1 X-18.974 Y1.132
G1 X-18.551 Y0.978
G1 X-18.705 Y0.555
G1 X-17.859 Y0.247
G1 X-17.706 Y0.670
G1 X-18.128 Y0.824
G1 X-17.821 Y1.669
G1 X-17.398 Y1.515
G1 X-17.552 Y1.093
G1 X-17.129 Y0.939
G1 X-16.975 Y1.362
G1 X-16.552 Y1.208
G1 X-16.860 Y0.362
G1 X-17.283 Y0.516
G1 X-17.437 Y0.093
G1 X-17.014 Y-0.061
G1 X-17.168 Y-0.483
G1 X-17.591 Y-0.329
G1 X-17.744 Y-0.752
G1 X-17.322 Y-0.906
G1 X-17.629 Y-1.752
G1 X-18.052 Y-1.598
G1 X-17.898 Y-1.175
G1 X-18.321 Y-1.021
G1 X-18.475 Y-1.444
G1 X-18.898 Y-1.290
G1 X-18.590 Y-0.444
G1 X-18.167 Y-0.598
G1 X-18.013 Y-0.176
G1 X-18.859 Y0.132
G1 X-19.013 Y-0.291
G1 X-19.435 Y-0.137
G1 X-19.282 Y0.286
G1 X-20.127 Y0.594
G1 X-20.281 Y0.171
G1 X-19.858 Y0.017
G1 X-20.012 Y-0.406
G1 X-20.435 Y-0.252
G1 X-20.589 Y-0.675
G1 X-19.743 Y-0.982
G1 X-19.589 Y-0.560
G1 X-19.167 Y-0.713
G1 X-19.628 Y-1.982
G1 X-20.051 Y-1.828
G1 X-19.897 Y-1.405
G1 X-20.743 Y-1.097
G1 X-20.896 Y-1.520
G1 X-20.474 Y-1.674
G1 X-20.628 Y-2.097
G1 X-21.050 Y-1.943
G1 X-21.204 Y-2.366
G1 X-20.359 Y-2.673
G1 X-20.205 Y-2.251
G1 X-19.782 Y-2.404
G1 X-19.936 Y-2.827
G1 X-19.090 Y-3.135
G1 X-18.937 Y-2.712
G1 X-19.359 Y-2.558
G1 X-19.052 Y-1.713
G1 X-18.629 Y-1.867
G1 X-18.783 Y-2.289
G1 X-18.360 Y-2.443
G1 X-18.206 Y-2.021
G1 X-17.783 Y-2.174
G1 X-18.091 Y-3.020
G1 X-18.514 Y-2.866
G1 X-18.668 Y-3.289
G1 X-17.822 Y-3.597
G1 X-17.668 Y-3.174
G1 X-17.246 Y-3.328
G1 X-17.399 Y-3.750
G1 X-16.554 Y-4.058
G1 X-16.400 Y-3.635
G1 X-16.823 Y-3.482
G1 X-16.669 Y-3.059
G1 X-16.246 Y-3.213
G1 X-16.092 Y-2.790
G1 X-16.938 Y-2.482
G1 X-17.092 Y-2.905
G1 X-17.514 Y-2.751
G1 X-17.207 Y-1.905
G1 X-16.784 Y-2.059
G1 X-16.630 Y-1.637
G1 X-17.053 Y-1.483
G1 X-16.745 Y-0.637
G1 X-16.322 Y-0.791
G1 X-16.476 Y-1.214
G1 X-16.053 Y-1.368
G1 X-15.900 Y-0.945
G1 X-15.477 Y-1.099
G1 X-15.785 Y-1.944
G1 X-16.207 Y-1.790
G1 X-16.361 Y-2.213
G1 X-15.516 Y-2.521
G1 X-15.093 Y-2.675
G1 X-14.939 Y-2.252
G1 X-15.362 Y-2.098
G1 X-15.054 Y-1.253
G1 X-14.631 Y-1.407
G1 X-14.785 Y-1.829
G1 X-14.362 Y-1.983
G1 X-14.209 Y-1.560
G1 X-13.786 Y-1.714
G1 X-14.094 Y-2.560
G1 X-14.516 Y-2.406
G1 X-14.670 Y-2.829
G1 X-14.247 Y-2.983
G1 X-14.555 Y-3.828
G1 X-14.978 Y-3.674
G1 X-14.824 Y-3.251
G1 X-15.670 Y-2.944
G1 X-15.823 Y-3.366
G1 X-15.401 Y-3.520
G1 X-15.555 Y-3.943
G1 X-15.977 Y-3.789
G1 X-16.131 Y-4.212
G1 X-15.286 Y-4.520
G1 X-15.132 Y-4.097
G1 X-14.709 Y-4.251
G1 X-15.171 Y-5.519
G1 X-15.593 Y-5.365
G1 X-15.440 Y-4.943
G1 X-16.285 Y-4.635
G1 X-16.439 Y-5.058
G1 X-16.016 Y-5.211
G1 X-16.170 Y-5.634
G1 X-16.593 Y-5.480
G1 X-16.747 Y-5.903
G1 X-15.901 Y-6.211
G1 X-15.747 Y-5.788
G1 X-15.324 Y-5.942
G1 X-15.607 Y-6.717
M700 P0.000000
G1 X-15.755 Y-6.743 F24000.000
M700 P0.157461
G1 X-16.055 Y-6.634 F1800.000
G1 X-16.138 Y-6.862
M700 P0.000000
G1 X-15.108 Y-6.663 F24000.000
M700 P0.157461
G1 X-15.056 Y-6.519 F1800.000
G1 X-14.633 Y-6.672
G1 X-14.479 Y-6.250
G1 X-14.902 Y-6.096
G1 X-14.594 Y-5.250
G1 X-14.171 Y-5.404
G1 X-14.325 Y-5.827
G1 X-13.902 Y-5.981
G1 X-13.748 Y-5.558
G1 X-13.326 Y-5.712
G1 X-13.633 Y-6.557
G1 X-14.056 Y-6.404
G1 X-14.183 Y-6.753
M700 P0.000000
G1 X-13.138 Y-7.217 F24000.000
M700 P0.157461
G1 X-12.942 Y-7.288 F1800.000
G1 X-12.788 Y-6.865
G1 X-13.211 Y-6.711
G1 X-12.903 Y-5.866
G1 X-12.480 Y-6.020
G1 X-12.634 Y-6.442
G1 X-12.211 Y-6.596
G1 X-12.057 Y-6.173
G1 X-11.635 Y-6.327
G1 X-11.942 Y-7.173
G1 X-12.365 Y-7.019
G1 X-12.519 Y-7.442
G1 X-12.096 Y-7.596
G1 X-12.269 Y-8.069
M700 P0.000000
G1 X-11.974 Y-8.576 F24000.000
M700 P0.157461
G1 X-11.674 Y-7.749 F1800.000
G1 X-11.251 Y-7.903
G1 X-11.097 Y-7.481
G1 X-11.520 Y-7.327
G1 X-11.212 Y-6.481
G1 X-10.789 Y-6.635
G1 X-10.943 Y-7.058
G1 X-10.520 Y-7.212
G1 X-10.366 Y-6.789
G1 X-9.944 Y-6.943
G1 X-10.251 Y-7.788
G1 X-10.674 Y-7.634
G1 X-10.828 Y-8.057
G1 X-9.983 Y-8.365
G1 X-9.560 Y-8.519
G1 X-9.406 Y-8.096
G1 X-9.829 Y-7.942
G1 X-9.521 Y-7.097
G1 X-9.098 Y-7.251
G1 X-9.252 Y-7.673
G1 X-8.829 Y-7.827
G1 X-8.675 Y-7.404
G1 X-8.253 Y-7.558
G1 X-8.560 Y-8.404
G1 X-8.983 Y-8.250
G1 X-9.137 Y-8.673
G1 X-8.714 Y-8.827
G1 X-9.022 Y-9.672
G1 X-9.445 Y-9.518
G1 X-9.291 Y-9.095
G1 X-10.136 Y-8.788
G1 X-10.290 Y-9.210
G1 X-9.867 Y-9.364
G1 X-10.021 Y-9.787
G1 X-10.444 Y-9.633
G1 X-10.598 Y-10.056
G1 X-9.752 Y-10.364
G1 X-9.599 Y-9.941
G1 X-9.176 Y-10.095
G1 X-9.484 Y-10.940
G1 X-9.906 Y-10.787
G1 X-10.060 Y-11.209
G1 X-9.637 Y-11.363
G1 X-9.945 Y-12.209
G1 X-10.368 Y-12.055
G1 X-10.214 Y-11.632
G1 X-10.637 Y-11.478
G1 X-10.791 Y-11.901
G1 X-11.213 Y-11.747
G1 X-10.906 Y-10.902
G1 X-10.483 Y-11.055
G1 X-10.329 Y-10.633
G1 X-11.175 Y-10.325
G1 X-11.328 Y-10.748
G1 X-11.712 Y-10.608
M700 P0.000000
G1 X-11.689 Y-10.421 F24000.000
M700 P0.157461
G1 X-11.597 Y-10.171 F1800.000
G1 X-11.654 Y-10.150
M700 P0.000000
G1 X-11.673 Y-9.665 F24000.000
M700 P0.157461
G1 X-11.021 Y-9.902 F1800.000
G1 X-10.867 Y-9.479
G1 X-11.290 Y-9.326
G1 X-11.136 Y-8.903
G1 X-10.713 Y-9.057
G1 X-10.559 Y-8.634
G1 X-11.405 Y-8.326
G1 X-11.559 Y-8.749
G1 X-11.965 Y-8.601
M700 P0.000000
G1 X-11.768 Y-9.151 F24000.000
M700 P0.157461
G1 X-11.712 Y-9.172 F1800.000
G1 X-11.745 Y-9.260
M700 P0.000000
G1 X-11.829 Y-11.044 F24000.000
M700 P0.157461
G1 X-11.482 Y-11.170 F1800.000
G1 X-11.944 Y-12.439
G1 X-12.367 Y-12.285
G1 X-12.223 Y-11.859
M700 P0.000000
G1 X-13.322 Y-12.895 F24000.000
M700 P0.157461
G1 X-12.674 Y-13.130 F1800.000
G1 X-12.521 Y-12.708
G1 X-12.098 Y-12.861
G1 X-12.252 Y-13.284
G1 X-11.781 Y-13.455
M700 P0.000000
G1 X-11.356 Y-13.455 F24000.000
M700 P0.157461
G1 X-11.252 Y-13.169 F1800.000
G1 X-11.675 Y-13.015
G1 X-11.367 Y-12.170
G1 X-10.945 Y-12.324
G1 X-11.098 Y-12.746
G1 X-10.676 Y-12.900
G1 X-10.522 Y-12.478
G1 X-10.099 Y-12.631
G1 X-10.399 Y-13.455
M700 P0.000000
G1 X-10.466 Y-13.455 F24000.000
M700 P0.157461
G1 X-10.830 Y-13.323 F1800.000
G1 X-10.878 Y-13.455
M700 P0.000000
G1 X-13.097 Y-13.455 F24000.000
M700 P0.157461
G1 X-13.574 Y-13.282 F1800.000
M700 P0.000000
G1 X-16.623 Y-13.455 F24000.000
M700 P0.157461
G1 X-16.518 Y-13.168 F1800.000
G1 X-16.941 Y-13.014
G1 X-17.095 Y-13.437
G1 X-17.518 Y-13.283
G1 X-17.228 Y-12.488
M700 P0.000000
G1 X-17.577 Y-12.130 F24000.000
M700 P0.157461
G1 X-17.633 Y-12.283 F1800.000
G1 X-18.055 Y-12.129
G1 X-17.901 Y-11.707
G1 X-18.747 Y-11.399
G1 X-18.901 Y-11.822
G1 X-18.478 Y-11.976
G1 X-18.632 Y-12.398
G1 X-19.055 Y-12.244
G1 X-19.209 Y-12.667
G1 X-18.363 Y-12.975
G1 X-18.209 Y-12.552
G1 X-17.786 Y-12.706
G1 X-18.059 Y-13.455
M700 P0.000000
G1 X-18.358 Y-13.455 F24000.000
M700 P0.157461
G1 X-18.517 Y-13.398 F1800.000
G1 X-18.538 Y-13.455
M700 P0.000000
G1 X-19.017 Y-13.455 F24000.000
M700 P0.157461
G1 X-18.940 Y-13.244 F1800.000
G1 X-19.313 Y-13.108
M700 P0.000000
G1 X-19.370 Y-11.651 F24000.000
M700 P0.157461
G1 X-19.324 Y-11.668 F1800.000
G1 X-19.170 Y-11.245
G1 X-19.573 Y-11.098
M700 P0.000000
G1 X-20.221 Y-10.187 F24000.000
M700 P0.157461
G1 X-20.130 Y-9.938 F1800.000
G1 X-19.707 Y-10.092
G1 X-19.861 Y-10.515
G1 X-19.016 Y-10.822
G1 X-18.862 Y-10.399
G1 X-19.285 Y-10.246
G1 X-19.131 Y-9.823
G1 X-18.708 Y-9.977
G1 X-18.554 Y-9.554
G1 X-19.400 Y-9.246
G1 X-19.554 Y-9.669
G1 X-19.976 Y-9.515
G1 X-19.669 Y-8.670
G1 X-19.246 Y-8.823
G1 X-19.092 Y-8.401
G1 X-19.515 Y-8.247
G1 X-19.207 Y-7.401
G1 X-18.784 Y-7.555
G1 X-18.938 Y-7.978
G1 X-18.515 Y-8.132
G1 X-18.362 Y-7.709
G1 X-17.939 Y-7.863
G1 X-18.246 Y-8.708
G1 X-18.669 Y-8.555
G1 X-18.823 Y-8.977
G1 X-18.240 Y-9.190
M700 P0.000000
G1 X-18.288 Y-10.609 F24000.000
M700 P0.157461
G1 X-18.439 Y-10.553 F1800.000
G1 X-18.593 Y-10.976
G1 X-18.142 Y-11.140
M700 P0.000000
G1 X-20.979 Y-9.640 F24000.000
M700 P0.157461
G1 X-20.553 Y-9.784 F1800.000
G1 X-20.245 Y-8.938
G1 X-20.668 Y-8.785
G1 X-20.822 Y-9.207
G1 X-21.245 Y-9.054
G1 X-21.091 Y-8.631
G1 X-21.514 Y-8.477
G1 X-21.821 Y-9.322
G1 X-21.779 Y-9.338
M700 P0.000000
G1 X-22.278 Y-9.261 F24000.000
M700 P0.157461
G1 X-22.244 Y-9.169 F1800.000
G1 X-22.667 Y-9.015
G1 X-22.757 Y-9.261
M700 P0.000000
G1 X-23.135 Y-9.323 F24000.000
M700 P0.157461
G1 X-23.666 Y-9.130 F1800.000
G1 X-23.512 Y-8.707
G1 X-23.090 Y-8.861
G1 X-22.936 Y-8.438
G1 X-23.358 Y-8.284
G1 X-23.205 Y-7.861
G1 X-22.359 Y-8.169
G1 X-22.513 Y-8.592
G1 X-22.090 Y-8.746
G1 X-21.629 Y-7.477
G1 X-22.051 Y-7.324
G1 X-22.205 Y-7.746
G1 X-23.051 Y-7.439
G1 X-22.897 Y-7.016
G1 X-22.474 Y-7.170
G1 X-22.320 Y-6.747
G1 X-22.743 Y-6.593
G1 X-22.589 Y-6.170
G1 X-21.744 Y-6.478
G1 X-21.897 Y-6.901
G1 X-21.475 Y-7.055
G1 X-21.321 Y-6.632
G1 X-20.475 Y-6.940
G1 X-20.629 Y-7.362
G1 X-21.052 Y-7.209
G1 X-21.360 Y-8.054
G1 X-20.937 Y-8.208
G1 X-20.783 Y-7.785
G1 X-20.360 Y-7.939
G1 X-20.514 Y-8.362
G1 X-20.091 Y-8.516
G1 X-19.784 Y-7.670
G1 X-20.206 Y-7.516
G1 X-20.053 Y-7.094
G1 X-19.630 Y-7.247
G1 X-19.476 Y-6.825
G1 X-19.899 Y-6.671
G1 X-19.745 Y-6.248
G1 X-19.322 Y-6.402
G1 X-19.014 Y-5.556
G1 X-19.437 Y-5.403
G1 X-19.591 Y-5.825
G1 X-20.014 Y-5.671
G1 X-19.860 Y-5.249
G1 X-20.283 Y-5.095
G1 X-20.590 Y-5.940
G1 X-20.168 Y-6.094
G1 X-20.321 Y-6.517
G1 X-21.167 Y-6.209
G1 X-21.013 Y-5.786
G1 X-21.436 Y-5.633
G1 X-21.590 Y-6.055
G1 X-22.435 Y-5.748
G1 X-22.281 Y-5.325
G1 X-21.859 Y-5.479
G1 X-21.705 Y-5.056
G1 X-22.127 Y-4.902
G1 X-21.974 Y-4.479
G1 X-21.128 Y-4.787
G1 X-21.282 Y-5.210
G1 X-20.859 Y-5.364
G1 X-20.398 Y-4.095
G1 X-20.820 Y-3.942
G1 X-20.974 Y-4.364
G1 X-21.820 Y-4.057
G1 X-21.666 Y-3.634
G1 X-21.243 Y-3.788
G1 X-21.089 Y-3.365
G1 X-21.512 Y-3.211
G1 X-21.358 Y-2.788
G1 X-20.513 Y-3.096
G1 X-20.666 Y-3.519
G1 X-20.244 Y-3.673
G1 X-20.090 Y-3.250
G1 X-19.244 Y-3.558
G1 X-19.398 Y-3.980
G1 X-19.821 Y-3.827
G1 X-20.129 Y-4.672
G1 X-19.706 Y-4.826
G1 X-19.552 Y-4.403
G1 X-19.129 Y-4.557
G1 X-19.283 Y-4.980
G1 X-18.860 Y-5.134
G1 X-18.553 Y-4.288
G1 X-18.975 Y-4.134
G1 X-18.822 Y-3.712
G1 X-17.976 Y-4.019
G1 X-18.130 Y-4.442
G1 X-17.707 Y-4.596
G1 X-17.553 Y-4.173
G1 X-16.708 Y-4.481
G1 X-16.862 Y-4.904
G1 X-17.284 Y-4.750
G1 X-17.438 Y-5.173
G1 X-17.016 Y-5.326
G1 X-17.169 Y-5.749
G1 X-18.015 Y-5.441
G1 X-17.861 Y-5.019
G1 X-18.284 Y-4.865
G1 X-18.592 Y-5.710
G1 X-18.169 Y-5.864
G1 X-18.323 Y-6.287
G1 X-18.745 Y-6.133
G1 X-19.053 Y-6.979
G1 X-18.630 Y-7.132
G1 X-18.477 Y-6.710
G1 X-18.054 Y-6.864
G1 X-18.208 Y-7.286
G1 X-17.785 Y-7.440
G1 X-17.477 Y-6.595
G1 X-17.900 Y-6.441
G1 X-17.746 Y-6.018
G1 X-16.478 Y-6.480
G1 X-16.632 Y-6.902
G1 X-17.054 Y-6.749
G1 X-17.362 Y-7.594
G1 X-17.337 Y-7.603
M700 P0.000000
G1 X-24.761 Y-10.167 F24000.000
M700 P0.157461
G1 X-24.973 Y-10.090 F1800.000
G1 X-24.819 Y-9.667
G1 X-24.397 Y-9.821
G1 X-24.243 Y-9.399
G1 X-25.088 Y-9.091
G1 X-25.242 Y-9.514
G1 X-25.665 Y-9.360
G1 X-25.511 Y-8.937
G1 X-26.357 Y-8.629
G1 X-26.510 Y-9.052
G1 X-26.088 Y-9.206
G1 X-26.395 Y-10.051
G1 X-26.818 Y-9.897
G1 X-26.664 Y-9.475
G1 X-27.087 Y-9.321
G1 X-27.241 Y-9.744
G1 X-27.664 Y-9.590
G1 X-27.356 Y-8.744
G1 X-26.933 Y-8.898
G1 X-26.779 Y-8.475
G1 X-27.625 Y-8.168
G1 X-27.779 Y-8.590
G1 X-28.201 Y-8.436
G1 X-28.048 Y-8.014
G1 X-28.893 Y-7.706
G1 X-29.047 Y-8.129
G1 X-28.624 Y-8.283
G1 X-28.778 Y-8.705
G1 X-29.201 Y-8.551
G1 X-29.355 Y-8.974
G1 X-28.509 Y-9.282
G1 X-28.355 Y-8.859
G1 X-27.933 Y-9.013
G1 X-28.240 Y-9.859
G1 X-28.663 Y-9.705
G1 X-28.817 Y-10.128
G1 X-28.394 Y-10.281
G1 X-28.702 Y-11.127
G1 X-29.125 Y-10.973
G1 X-28.971 Y-10.550
G1 X-29.394 Y-10.396
G1 X-29.547 Y-10.819
G1 X-29.970 Y-10.665
G1 X-29.662 Y-9.820
G1 X-29.240 Y-9.974
G1 X-29.086 Y-9.551
G1 X-30.354 Y-9.089
G1 X-30.508 Y-9.512
G1 X-30.085 Y-9.666
G1 X-30.393 Y-10.511
G1 X-30.816 Y-10.358
G1 X-30.662 Y-9.935
G1 X-31.085 Y-9.781
G1 X-31.239 Y-10.204
G1 X-31.661 Y-10.050
G1 X-31.354 Y-9.204
G1 X-30.931 Y-9.358
G1 X-30.777 Y-8.935
G1 X-31.200 Y-8.782
G1 X-30.892 Y-7.936
G1 X-30.469 Y-8.090
G1 X-30.623 Y-8.513
G1 X-29.778 Y-8.820
G1 X-29.624 Y-8.398
G1 X-30.046 Y-8.244
G1 X-29.893 Y-7.821
G1 X-29.470 Y-7.975
G1 X-29.316 Y-7.552
G1 X-30.161 Y-7.244
G1 X-30.315 Y-7.667
G1 X-30.738 Y-7.513
G1 X-30.584 Y-7.090
G1 X-31.430 Y-6.783
G1 X-31.584 Y-7.206
G1 X-31.161 Y-7.359
G1 X-31.469 Y-8.205
G1 X-31.891 Y-8.051
G1 X-31.737 Y-7.628
G1 X-32.160 Y-7.474
G1 X-32.314 Y-7.897
G1 X-32.737 Y-7.743
G1 X-32.429 Y-6.898
G1 X-32.006 Y-7.052
G1 X-31.852 Y-6.629
G1 X-32.698 Y-6.321
G1 X-32.852 Y-6.744
G1 X-33.275 Y-6.590
G1 X-33.121 Y-6.167
G1 X-33.455 Y-6.045
M700 P0.000000
G1 X-33.455 Y-5.567 F24000.000
M700 P0.157461
G1 X-32.967 Y-5.745 F1800.000
G1 X-32.813 Y-5.322
G1 X-32.390 Y-5.476
G1 X-32.544 Y-5.898
G1 X-31.699 Y-6.206
G1 X-31.545 Y-5.783
G1 X-31.967 Y-5.629
G1 X-31.660 Y-4.784
G1 X-31.237 Y-4.938
G1 X-31.391 Y-5.361
G1 X-30.968 Y-5.514
G1 X-30.814 Y-5.092
G1 X-30.391 Y-5.246
G1 X-30.699 Y-6.091
G1 X-31.122 Y-5.937
G1 X-31.276 Y-6.360
G1 X-30.430 Y-6.668
G1 X-30.276 Y-6.245
G1 X-29.854 Y-6.399
G1 X-30.008 Y-6.822
G1 X-29.162 Y-7.129
G1 X-29.008 Y-6.707
G1 X-29.431 Y-6.553
G1 X-29.277 Y-6.130
G1 X-28.854 Y-6.284
G1 X-28.700 Y-5.861
G1 X-29.546 Y-5.553
G1 X-29.700 Y-5.976
G1 X-30.123 Y-5.822
G1 X-29.815 Y-4.977
G1 X-29.392 Y-5.131
G1 X-29.238 Y-4.708
G1 X-29.661 Y-4.554
G1 X-29.353 Y-3.708
G1 X-28.930 Y-3.862
G1 X-29.084 Y-4.285
G1 X-28.662 Y-4.439
G1 X-28.508 Y-4.016
G1 X-28.085 Y-4.170
G1 X-28.393 Y-5.016
G1 X-28.815 Y-4.862
G1 X-28.969 Y-5.284
G1 X-27.701 Y-5.746
G1 X-27.547 Y-5.323
G1 X-27.970 Y-5.169
G1 X-27.662 Y-4.324
G1 X-27.239 Y-4.478
G1 X-27.393 Y-4.901
G1 X-26.971 Y-5.054
G1 X-26.817 Y-4.632
G1 X-26.394 Y-4.786
G1 X-26.702 Y-5.631
G1 X-27.124 Y-5.477
G1 X-27.278 Y-5.900
G1 X-26.856 Y-6.054
G1 X-27.163 Y-6.899
G1 X-27.586 Y-6.745
G1 X-27.432 Y-6.323
G1 X-28.278 Y-6.015
G1 X-28.432 Y-6.438
G1 X-28.009 Y-6.592
G1 X-28.163 Y-7.014
G1 X-28.585 Y-6.860
G1 X-28.739 Y-7.283
G1 X-27.894 Y-7.591
G1 X-27.740 Y-7.168
G1 X-27.317 Y-7.322
G1 X-27.471 Y-7.745
G1 X-26.625 Y-8.053
G1 X-26.472 Y-7.630
G1 X-26.894 Y-7.476
G1 X-26.587 Y-6.630
G1 X-26.164 Y-6.784
G1 X-26.318 Y-7.207
G1 X-25.895 Y-7.361
G1 X-25.741 Y-6.938
G1 X-25.318 Y-7.092
G1 X-25.626 Y-7.938
G1 X-26.049 Y-7.784
G1 X-26.203 Y-8.206
G1 X-25.357 Y-8.514
G1 X-25.203 Y-8.091
G1 X-24.781 Y-8.245
G1 X-24.934 Y-8.668
G1 X-24.089 Y-8.976
G1 X-23.935 Y-8.553
G1 X-24.358 Y-8.399
G1 X-24.204 Y-7.976
G1 X-23.781 Y-8.130
G1 X-23.627 Y-7.708
G1 X-24.473 Y-7.400
G1 X-24.627 Y-7.823
G1 X-25.049 Y-7.669
G1 X-24.588 Y-6.400
G1 X-24.165 Y-6.554
G1 X-24.319 Y-6.977
G1 X-23.473 Y-7.285
G1 X-23.320 Y-6.862
G1 X-23.742 Y-6.708
G1 X-23.588 Y-6.285
G1 X-23.166 Y-6.439
G1 X-23.012 Y-6.016
G1 X-23.857 Y-5.709
G1 X-24.011 Y-6.132
G1 X-24.434 Y-5.978
G1 X-24.280 Y-5.555
G1 X-25.126 Y-5.247
G1 X-25.279 Y-5.670
G1 X-24.857 Y-5.824
G1 X-25.164 Y-6.669
G1 X-25.587 Y-6.515
G1 X-25.433 Y-6.093
G1 X-25.856 Y-5.939
G1 X-26.010 Y-6.362
G1 X-26.433 Y-6.208
G1 X-26.125 Y-5.362
G1 X-25.702 Y-5.516
G1 X-25.548 Y-5.093
G1 X-25.971 Y-4.939
G1 X-25.817 Y-4.517
G1 X-25.395 Y-4.671
G1 X-25.241 Y-4.248
G1 X-25.663 Y-4.094
G1 X-25.356 Y-3.248
G1 X-24.933 Y-3.402
G1 X-25.087 Y-3.825
G1 X-24.664 Y-3.979
G1 X-24.510 Y-3.556
G1 X-24.087 Y-3.710
G1 X-24.395 Y-4.555
G1 X-24.818 Y-4.402
G1 X-24.972 Y-4.824
G1 X-24.126 Y-5.132
G1 X-23.972 Y-4.709
G1 X-23.550 Y-4.863
G1 X-23.703 Y-5.286
G1 X-22.858 Y-5.594
G1 X-22.704 Y-5.171
G1 X-23.127 Y-5.017
G1 X-22.973 Y-4.594
G1 X-22.550 Y-4.748
G1 X-22.396 Y-4.325
G1 X-23.242 Y-4.018
G1 X-23.396 Y-4.440
G1 X-23.818 Y-4.287
G1 X-23.357 Y-3.018
G1 X-22.934 Y-3.172
G1 X-23.088 Y-3.595
G1 X-22.242 Y-3.903
G1 X-22.089 Y-3.480
G1 X-22.511 Y-3.326
G1 X-22.357 Y-2.903
G1 X-21.935 Y-3.057
G1 X-21.781 Y-2.634
G1 X-22.626 Y-2.327
G1 X-22.780 Y-2.749
G1 X-23.203 Y-2.596
G1 X-23.049 Y-2.173
G1 X-23.895 Y-1.865
G1 X-24.049 Y-2.288
G1 X-23.626 Y-2.442
G1 X-23.934 Y-3.287
G1 X-24.356 Y-3.133
G1 X-24.202 Y-2.711
G1 X-24.625 Y-2.557
G1 X-24.779 Y-2.979
G1 X-25.202 Y-2.826
G1 X-24.894 Y-1.980
G1 X-24.471 Y-2.134
G1 X-24.317 Y-1.711
G1 X-25.163 Y-1.403
G1 X-25.317 Y-1.826
G1 X-25.740 Y-1.672
G1 X-25.586 Y-1.250
G1 X-26.431 Y-0.942
G1 X-26.585 Y-1.365
G1 X-26.162 Y-1.518
G1 X-26.316 Y-1.941
G1 X-26.739 Y-1.787
G1 X-26.893 Y-2.210
G1 X-26.047 Y-2.518
G1 X-25.893 Y-2.095
G1 X-25.471 Y-2.249
G1 X-25.778 Y-3.094
G1 X-26.201 Y-2.941
G1 X-26.355 Y-3.363
G1 X-25.932 Y-3.517
G1 X-26.240 Y-4.363
G1 X-26.663 Y-4.209
G1 X-26.509 Y-3.786
G1 X-26.932 Y-3.632
G1 X-27.086 Y-4.055
G1 X-27.508 Y-3.901
G1 X-27.201 Y-3.056
G1 X-26.778 Y-3.210
G1 X-26.624 Y-2.787
G1 X-27.892 Y-2.325
G1 X-28.046 Y-2.748
G1 X-27.623 Y-2.902
G1 X-27.931 Y-3.747
G1 X-28.354 Y-3.593
G1 X-28.200 Y-3.171
G1 X-28.623 Y-3.017
G1 X-28.777 Y-3.440
G1 X-29.199 Y-3.286
G1 X-28.892 Y-2.440
G1 X-28.469 Y-2.594
G1 X-28.315 Y-2.171
G1 X-28.738 Y-2.017
G1 X-28.430 Y-1.172
G1 X-28.007 Y-1.326
G1 X-28.161 Y-1.749
G1 X-27.316 Y-2.056
G1 X-27.162 Y-1.633
G1 X-27.584 Y-1.480
G1 X-27.431 Y-1.057
G1 X-27.008 Y-1.211
G1 X-26.854 Y-0.788
G1 X-27.699 Y-0.480
G1 X-27.853 Y-0.903
G1 X-28.276 Y-0.749
G1 X-27.814 Y0.519
G1 X-27.392 Y0.365
G1 X-27.546 Y-0.057
G1 X-26.700 Y-0.365
G1 X-26.546 Y0.058
G1 X-26.969 Y0.211
G1 X-26.815 Y0.634
G1 X-26.392 Y0.480
G1 X-26.238 Y0.903
G1 X-27.084 Y1.211
G1 X-27.238 Y0.788
G1 X-27.661 Y0.942
G1 X-27.353 Y1.787
G1 X-26.930 Y1.634
G1 X-26.776 Y2.056
G1 X-27.199 Y2.210
G1 X-26.891 Y3.056
G1 X-26.469 Y2.902
G1 X-26.622 Y2.479
G1 X-26.200 Y2.325
G1 X-26.046 Y2.748
G1 X-25.623 Y2.594
G1 X-25.931 Y1.749
G1 X-26.353 Y1.902
G1 X-26.507 Y1.480
G1 X-25.662 Y1.172
G1 X-25.239 Y1.018
G1 X-25.085 Y1.441
G1 X-25.508 Y1.595
G1 X-25.200 Y2.440
G1 X-24.777 Y2.286
G1 X-24.931 Y1.864
G1 X-24.509 Y1.710
G1 X-24.355 Y2.132
G1 X-23.932 Y1.979
G1 X-24.240 Y1.133
G1 X-24.662 Y1.287
G1 X-24.816 Y0.864
G1 X-24.394 Y0.710
G1 X-24.701 Y-0.135
G1 X-25.124 Y0.019
G1 X-24.970 Y0.441
G1 X-25.816 Y0.749
G1 X-25.970 Y0.326
G1 X-25.547 Y0.173
G1 X-25.701 Y-0.250
G1 X-26.123 Y-0.096
G1 X-26.277 Y-0.519
G1 X-25.432 Y-0.827
G1 X-25.278 Y-0.404
G1 X-24.855 Y-0.558
G1 X-25.009 Y-0.981
G1 X-24.164 Y-1.288
G1 X-24.010 Y-0.866
G1 X-24.432 Y-0.712
G1 X-24.125 Y0.134
G1 X-23.702 Y-0.020
G1 X-23.856 Y-0.443
G1 X-23.433 Y-0.597
G1 X-23.279 Y-0.174
G1 X-22.856 Y-0.328
G1 X-23.164 Y-1.173
G1 X-23.587 Y-1.020
G1 X-23.741 Y-1.442
G1 X-22.895 Y-1.750
G1 X-22.741 Y-1.327
G1 X-22.319 Y-1.481
G1 X-22.473 Y-1.904
G1 X-21.627 Y-2.212
G1 X-21.473 Y-1.789
G1 X-21.896 Y-1.635
G1 X-21.742 Y-1.212
G1 X-21.319 Y-1.366
G1 X-21.165 Y-0.943
G1 X-22.011 Y-0.636
G1 X-22.165 Y-1.058
G1 X-22.588 Y-0.905
G1 X-22.126 Y0.364
G1 X-21.703 Y0.210
G1 X-21.857 Y-0.213
G1 X-21.012 Y-0.521
G1 X-20.858 Y-0.098
G1 X-21.280 Y0.056
G1 X-21.127 Y0.479
G1 X-20.704 Y0.325
G1 X-20.550 Y0.748
G1 X-21.395 Y1.055
G1 X-21.549 Y0.633
G1 X-21.972 Y0.786
G1 X-21.818 Y1.209
G1 X-22.664 Y1.517
G1 X-22.818 Y1.094
G1 X-22.395 Y0.940
G1 X-22.703 Y0.095
G1 X-23.125 Y0.249
G1 X-22.971 Y0.671
G1 X-23.394 Y0.825
G1 X-23.548 Y0.403
G1 X-23.971 Y0.556
G1 X-23.663 Y1.402
G1 X-23.240 Y1.248
G1 X-23.086 Y1.671
G1 X-23.509 Y1.825
G1 X-23.355 Y2.247
G1 X-22.933 Y2.094
G1 X-22.779 Y2.516
G1 X-23.201 Y2.670
G1 X-22.894 Y3.516
G1 X-22.471 Y3.362
G1 X-22.625 Y2.939
G1 X-22.202 Y2.785
G1 X-22.048 Y3.208
G1 X-21.625 Y3.054
G1 X-21.933 Y2.209
G1 X-22.356 Y2.363
G1 X-22.510 Y1.940
G1 X-21.664 Y1.632
G1 X-21.510 Y2.055
G1 X-21.088 Y1.901
G1 X-21.242 Y1.478
G1 X-20.396 Y1.170
G1 X-20.242 Y1.593
G1 X-20.665 Y1.747
G1 X-20.511 Y2.170
G1 X-20.088 Y2.016
G1 X-19.934 Y2.439
G1 X-20.780 Y2.746
G1 X-20.934 Y2.324
G1 X-21.357 Y2.478
G1 X-20.895 Y3.746
G1 X-20.472 Y3.592
G1 X-20.626 Y3.169
G1 X-19.781 Y2.861
G1 X-19.627 Y3.284
G1 X-20.049 Y3.438
G1 X-19.896 Y3.861
G1 X-19.473 Y3.707
G1 X-19.319 Y4.130
G1 X-20.164 Y4.437
G1 X-20.318 Y4.015
G1 X-20.741 Y4.169
G1 X-20.587 Y4.591
G1 X-21.433 Y4.899
G1 X-21.587 Y4.476
G1 X-21.164 Y4.322
G1 X-21.472 Y3.477
G1 X-21.894 Y3.631
G1 X-21.740 Y4.054
G1 X-22.163 Y4.207
G1 X-22.317 Y3.785
G1 X-22.740 Y3.939
G1 X-22.432 Y4.784
G1 X-22.009 Y4.630
G1 X-21.855 Y5.053
G1 X-22.701 Y5.361
G1 X-22.855 Y4.938
G1 X-23.278 Y5.092
G1 X-23.124 Y5.515
G1 X-23.969 Y5.822
G1 X-24.123 Y5.400
G1 X-23.700 Y5.246
G1 X-23.854 Y4.823
G1 X-24.277 Y4.977
G1 X-24.431 Y4.554
G1 X-23.585 Y4.246
G1 X-23.431 Y4.669
G1 X-23.009 Y4.515
G1 X-23.316 Y3.670
G1 X-23.739 Y3.823
G1 X-23.893 Y3.401
G1 X-23.470 Y3.247
G1 X-23.778 Y2.401
G1 X-24.201 Y2.555
G1 X-24.047 Y2.978
G1 X-24.470 Y3.132
G1 X-24.624 Y2.709
G1 X-25.046 Y2.863
G1 X-24.739 Y3.708
G1 X-24.316 Y3.555
G1 X-24.162 Y3.977
G1 X-25.430 Y4.439
G1 X-25.584 Y4.016
G1 X-25.161 Y3.862
G1 X-25.469 Y3.017
G1 X-25.892 Y3.171
G1 X-25.738 Y3.593
G1 X-26.161 Y3.747
G1 X-26.315 Y3.325
G1 X-26.737 Y3.478
G1 X-26.430 Y4.324
G1 X-26.007 Y4.170
G1 X-25.853 Y4.593
G1 X-26.276 Y4.747
G1 X-25.968 Y5.592
G1 X-25.545 Y5.438
G1 X-25.699 Y5.016
G1 X-24.854 Y4.708
G1 X-24.700 Y5.131
G1 X-25.123 Y5.284
G1 X-24.969 Y5.707
G1 X-24.546 Y5.553
G1 X-24.392 Y5.976
G1 X-25.238 Y6.284
G1 X-25.391 Y5.861
G1 X-25.814 Y6.015
G1 X-25.660 Y6.438
G1 X-26.506 Y6.746
G1 X-26.660 Y6.323
G1 X-26.237 Y6.169
G1 X-26.545 Y5.323
G1 X-26.967 Y5.477
G1 X-26.814 Y5.900
G1 X-27.236 Y6.054
G1 X-27.390 Y5.631
G1 X-27.813 Y5.785
G1 X-27.505 Y6.630
G1 X-27.082 Y6.477
G1 X-26.929 Y6.899
G1 X-27.774 Y7.207
G1 X-27.928 Y6.784
G1 X-28.351 Y6.938
G1 X-28.197 Y7.361
G1 X-29.042 Y7.669
G1 X-29.196 Y7.246
G1 X-28.773 Y7.092
G1 X-28.927 Y6.669
G1 X-29.350 Y6.823
G1 X-29.504 Y6.400
G1 X-28.658 Y6.093
G1 X-28.505 Y6.515
G1 X-28.082 Y6.362
G1 X-28.236 Y5.939
G1 X-28.543 Y5.093
G1 X-28.966 Y5.247
G1 X-28.812 Y5.670
G1 X-29.658 Y5.978
G1 X-29.812 Y5.555
G1 X-29.389 Y5.401
G1 X-29.543 Y4.978
G1 X-29.966 Y5.132
G1 X-30.119 Y4.709
G1 X-29.274 Y4.402
G1 X-29.120 Y4.824
G1 X-28.697 Y4.671
G1 X-28.851 Y4.248
G1 X-28.006 Y3.940
G1 X-27.852 Y4.363
G1 X-28.275 Y4.517
G1 X-27.967 Y5.362
G1 X-27.544 Y5.208
G1 X-27.698 Y4.786
G1 X-27.275 Y4.632
G1 X-27.121 Y5.054
G1 X-26.699 Y4.901
G1 X-27.006 Y4.055
G1 X-27.429 Y4.209
G1 X-27.583 Y3.786
G1 X-27.160 Y3.632
G1 X-27.468 Y2.787
G1 X-27.891 Y2.941
G1 X-27.737 Y3.363
G1 X-28.582 Y3.671
G1 X-28.736 Y3.248
G1 X-28.313 Y3.095
G1 X-28.467 Y2.672
G1 X-28.890 Y2.826
G1 X-29.044 Y2.403
G1 X-28.198 Y2.095
G1 X-28.045 Y2.518
G1 X-27.622 Y2.364
G1 X-27.930 Y1.519
G1 X-28.352 Y1.672
G1 X-28.506 Y1.250
G1 X-28.083 Y1.096
G1 X-28.391 Y0.250
G1 X-28.814 Y0.404
G1 X-28.660 Y0.827
G1 X-29.083 Y0.981
G1 X-29.237 Y0.558
G1 X-29.659 Y0.712
G1 X-29.352 Y1.557
G1 X-28.929 Y1.404
G1 X-28.775 Y1.826
G1 X-30.043 Y2.288
G1 X-30.197 Y1.865
G1 X-29.774 Y1.711
G1 X-30.082 Y0.866
G1 X-30.505 Y1.020
G1 X-30.351 Y1.442
G1 X-30.774 Y1.596
G1 X-30.928 Y1.173
G1 X-31.350 Y1.327
G1 X-31.043 Y2.173
G1 X-30.620 Y2.019
G1 X-30.466 Y2.442
G1 X-30.889 Y2.596
G1 X-30.581 Y3.441
G1 X-30.158 Y3.287
G1 X-30.312 Y2.865
G1 X-29.467 Y2.557
G1 X-29.313 Y2.980
G1 X-29.736 Y3.133
G1 X-29.582 Y3.556
G1 X-29.159 Y3.402
G1 X-29.005 Y3.825
G1 X-29.851 Y4.133
G1 X-30.004 Y3.710
G1 X-30.427 Y3.864
G1 X-30.273 Y4.287
G1 X-30.696 Y4.441
G1 X-30.850 Y4.018
G1 X-31.273 Y4.172
G1 X-31.119 Y4.594
G1 X-31.964 Y4.902
G1 X-32.118 Y4.479
G1 X-31.695 Y4.326
G1 X-31.849 Y3.903
G1 X-32.272 Y4.057
G1 X-32.426 Y3.634
G1 X-31.580 Y3.326
G1 X-31.427 Y3.749
G1 X-31.004 Y3.595
G1 X-31.312 Y2.750
G1 X-31.734 Y2.903
G1 X-31.888 Y2.481
G1 X-31.465 Y2.327
G1 X-31.773 Y1.481
G1 X-32.196 Y1.635
G1 X-32.042 Y2.058
G1 X-32.465 Y2.212
G1 X-32.619 Y1.789
G1 X-33.041 Y1.943
G1 X-32.734 Y2.788
G1 X-32.311 Y2.634
G1 X-32.157 Y3.057
G1 X-33.425 Y3.519
G1 X-33.455 Y3.436
M700 P0.000000
G1 X-33.455 Y3.051 F24000.000
M700 P0.157461
G1 X-33.156 Y2.942 F1800.000
G1 X-33.455 Y2.121
M700 P0.000000
G1 X-33.455 Y0.806 F24000.000
M700 P0.157461
G1 X-33.195 Y1.520 F1800.000
G1 X-32.773 Y1.366
G1 X-32.926 Y0.943
G1 X-32.504 Y0.790
G1 X-32.350 Y1.212
G1 X-31.927 Y1.058
G1 X-32.235 Y0.213
G1 X-32.658 Y0.367
G1 X-32.811 Y-0.056
G1 X-32.389 Y-0.210
G1 X-32.696 Y-1.055
G1 X-33.119 Y-0.901
G1 X-32.965 Y-0.479
G1 X-33.455 Y-0.300
M700 P0.000000
G1 X-33.455 Y0.178 F24000.000
M700 P0.157461
G1 X-33.234 Y0.098 F1800.000
G1 X-33.080 Y0.521
G1 X-33.455 Y0.657
M700 P0.000000
G1 X-33.455 Y-1.737 F24000.000
M700 P0.157461
G1 X-33.427 Y-1.747 F1800.000
G1 X-33.273 Y-1.324
G1 X-32.850 Y-1.478
G1 X-33.004 Y-1.901
G1 X-32.581 Y-2.055
G1 X-32.428 Y-1.632
G1 X-32.005 Y-1.786
G1 X-32.159 Y-2.209
G1 X-31.313 Y-2.516
G1 X-31.159 Y-2.094
G1 X-31.582 Y-1.940
G1 X-31.428 Y-1.517
G1 X-31.005 Y-1.671
G1 X-30.852 Y-1.248
G1 X-31.697 Y-0.940
G1 X-31.851 Y-1.363
G1 X-32.274 Y-1.209
G1 X-31.966 Y-0.364
G1 X-31.543 Y-0.518
G1 X-31.389 Y-0.095
G1 X-31.812 Y0.059
G1 X-31.504 Y0.905
G1 X-31.082 Y0.751
G1 X-31.235 Y0.328
G1 X-30.813 Y0.174
G1 X-30.659 Y0.597
G1 X-30.236 Y0.443
G1 X-30.544 Y-0.403
G1 X-30.967 Y-0.249
G1 X-31.120 Y-0.671
G1 X-30.275 Y-0.979
G1 X-29.852 Y-1.133
G1 X-29.698 Y-0.710
G1 X-30.121 Y-0.556
G1 X-29.813 Y0.289
G1 X-29.391 Y0.135
G1 X-29.544 Y-0.288
G1 X-29.122 Y-0.441
G1 X-28.968 Y-0.019
G1 X-28.545 Y-0.172
G1 X-28.853 Y-1.018
G1 X-29.275 Y-0.864
G1 X-29.429 Y-1.287
G1 X-29.007 Y-1.441
G1 X-29.314 Y-2.286
G1 X-29.737 Y-2.132
G1 X-29.583 Y-1.710
G1 X-30.429 Y-1.402
G1 X-30.583 Y-1.825
G1 X-30.160 Y-1.979
G1 X-30.314 Y-2.401
G1 X-30.736 Y-2.247
G1 X-30.890 Y-2.670
G1 X-30.045 Y-2.978
G1 X-29.891 Y-2.555
G1 X-29.468 Y-2.709
G1 X-29.776 Y-3.555
G1 X-30.199 Y-3.401
G1 X-30.353 Y-3.823
G1 X-29.930 Y-3.977
G1 X-30.238 Y-4.823
G1 X-30.660 Y-4.669
G1 X-30.506 Y-4.246
G1 X-30.929 Y-4.092
G1 X-31.083 Y-4.515
G1 X-31.506 Y-4.361
G1 X-31.198 Y-3.516
G1 X-30.775 Y-3.670
G1 X-30.621 Y-3.247
G1 X-31.467 Y-2.939
G1 X-31.621 Y-3.362
G1 X-32.044 Y-3.208
G1 X-31.890 Y-2.785
G1 X-32.735 Y-2.477
G1 X-32.889 Y-2.900
G1 X-32.466 Y-3.054
G1 X-32.620 Y-3.477
G1 X-33.043 Y-3.323
G1 X-33.197 Y-3.746
G1 X-32.351 Y-4.053
G1 X-32.197 Y-3.631
G1 X-31.775 Y-3.785
G1 X-32.236 Y-5.053
G1 X-32.659 Y-4.899
G1 X-32.505 Y-4.476
G1 X-33.351 Y-4.168
G1 X-33.455 Y-4.456
M700 P0.000000
G1 X-33.455 Y-4.609 F24000.000
M700 P0.157461
G1 X-33.082 Y-4.745 F1800.000
G1 X-33.236 Y-5.168
G1 X-33.455 Y-5.088
M700 P0.000000
G1 X-33.455 Y-7.087 F24000.000
M700 P0.157461
G1 X-33.428 Y-7.013 F1800.000
G1 X-33.006 Y-7.167
G1 X-33.455 Y-8.402
M700 P0.000000
G1 X-33.455 Y-9.397 F24000.000
M700 P0.157461
G1 X-32.930 Y-9.588 F1800.000
G1 X-32.776 Y-9.165
G1 X-33.198 Y-9.012
G1 X-32.891 Y-8.166
G1 X-32.468 Y-8.320
G1 X-32.622 Y-8.743
G1 X-32.199 Y-8.897
G1 X-32.045 Y-8.474
G1 X-31.622 Y-8.628
G1 X-31.930 Y-9.473
G1 X-32.353 Y-9.319
G1 X-32.507 Y-9.742
G1 X-32.084 Y-9.896
G1 X-32.392 Y-10.741
G1 X-32.815 Y-10.588
G1 X-32.661 Y-10.165
G1 X-33.455 Y-9.876
M700 P0.000000
G1 X-33.455 Y-10.354 F24000.000
M700 P0.157461
G1 X-33.237 Y-10.434 F1800.000
G1 X-33.391 Y-10.856
G1 X-33.455 Y-10.833
M700 P0.000000
G1 X-33.425 Y-11.323 F24000.000
M700 P0.157461
G1 X-33.122 Y-11.433 F1800.000
G1 X-32.968 Y-11.010
G1 X-32.546 Y-11.164
G1 X-32.853 Y-12.010
G1 X-33.276 Y-11.856
G1 X-33.282 Y-11.873
M700 P0.000000
G1 X-31.879 Y-13.280 F24000.000
M700 P0.157461
G1 X-31.739 Y-12.894 F1800.000
G1 X-31.316 Y-13.048
G1 X-31.162 Y-12.625
G1 X-32.008 Y-12.317
G1 X-32.162 Y-12.740
G1 X-32.584 Y-12.586
G1 X-32.277 Y-11.741
G1 X-31.854 Y-11.895
G1 X-31.700 Y-11.472
G1 X-32.123 Y-11.318
G1 X-31.815 Y-10.473
G1 X-31.392 Y-10.626
G1 X-31.546 Y-11.049
G1 X-31.123 Y-11.203
G1 X-30.970 Y-10.780
G1 X-30.547 Y-10.934
G1 X-30.855 Y-11.780
G1 X-31.277 Y-11.626
G1 X-31.431 Y-12.049
G1 X-30.586 Y-12.356
G1 X-30.163 Y-12.510
G1 X-30.009 Y-12.087
G1 X-30.432 Y-11.934
G1 X-30.124 Y-11.088
G1 X-29.701 Y-11.242
G1 X-29.855 Y-11.665
G1 X-29.432 Y-11.819
G1 X-29.279 Y-11.396
G1 X-28.856 Y-11.550
G1 X-29.164 Y-12.395
G1 X-29.586 Y-12.241
G1 X-29.740 Y-12.664
G1 X-29.317 Y-12.818
G1 X-29.549 Y-13.455
M700 P0.000000
G1 X-30.028 Y-13.455 F24000.000
M700 P0.157461
G1 X-29.894 Y-13.087 F1800.000
G1 X-30.740 Y-12.779
G1 X-30.893 Y-13.202
G1 X-30.471 Y-13.356
G1 X-30.507 Y-13.455
M700 P0.000000
G1 X-29.071 Y-13.455 F24000.000
M700 P0.157461
G1 X-29.049 Y-13.395 F1800.000
G1 X-28.882 Y-13.455
M700 P0.000000
G1 X-27.156 Y-13.455 F24000.000
M700 P0.157461
G1 X-27.050 Y-13.165 F1800.000
G1 X-26.627 Y-13.318
G1 X-26.677 Y-13.455
M700 P0.000000
G1 X-26.198 Y-13.455 F24000.000
M700 P0.157461
G1 X-26.050 Y-13.050 F1800.000
G1 X-25.677 Y-13.185
M700 P0.000000
G1 X-25.742 Y-12.683 F24000.000
M700 P0.157461
G1 X-26.319 Y-12.473 F1800.000
G1 X-26.473 Y-12.896
G1 X-26.896 Y-12.742
G1 X-26.742 Y-12.319
G1 X-27.588 Y-12.011
G1 X-27.741 Y-12.434
G1 X-27.319 Y-12.588
G1 X-27.626 Y-13.433
G1 X-28.049 Y-13.280
G1 X-27.895 Y-12.857
G1 X-28.318 Y-12.703
G1 X-28.472 Y-13.126
G1 X-28.895 Y-12.972
G1 X-28.587 Y-12.126
G1 X-28.164 Y-12.280
G1 X-28.010 Y-11.857
G1 X-28.433 Y-11.704
G1 X-28.279 Y-11.281
G1 X-27.856 Y-11.435
G1 X-27.703 Y-11.012
G1 X-28.125 Y-10.858
G1 X-27.818 Y-10.012
G1 X-27.395 Y-10.166
G1 X-27.549 Y-10.589
G1 X-27.126 Y-10.743
G1 X-26.972 Y-10.320
G1 X-26.549 Y-10.474
G1 X-26.857 Y-11.320
G1 X-27.280 Y-11.166
G1 X-27.434 Y-11.589
G1 X-26.588 Y-11.896
G1 X-26.434 Y-11.473
G1 X-26.012 Y-11.627
G1 X-26.165 Y-12.050
G1 X-25.729 Y-12.209
M700 P0.000000
G1 X-25.329 Y-10.918 F24000.000
M700 P0.157461
G1 X-25.704 Y-10.782 F1800.000
G1 X-25.858 Y-11.205
G1 X-26.280 Y-11.051
G1 X-25.819 Y-9.782
G1 X-25.396 Y-9.936
G1 X-25.550 Y-10.359
G1 X-25.080 Y-10.530
M700 P0.000000
G1 X-33.455 Y-2.694 F24000.000
M700 P0.157461
